;START_OF_HEADER
;HEADER_VERSION:0.1
;FLAVOR:Griffin
;GENERATOR.NAME:Cura_SteamEngine
;GENERATOR.VERSION:4.10.0
;GENERATOR.BUILD_DATE:2021-06-29
;TARGET_MACHINE.NAME:Ultimaker S3
;EXTRUDER_TRAIN.0.INITIAL_TEMPERATURE:200
;EXTRUDER_TRAIN.0.MATERIAL.VOLUME_USED:2555
;EXTRUDER_TRAIN.0.MATERIAL.GUID:506c9f0d-e3aa-4bd4-b2d2-23e2425b1aa9
;EXTRUDER_TRAIN.0.NOZZLE.DIAMETER:0.4
;EXTRUDER_TRAIN.0.NOZZLE.NAME:AA 0.4
;BUILD_PLATE.TYPE:glass
;BUILD_PLATE.INITIAL_TEMPERATURE:65
;PRINT.TIME:2289
;PRINT.GROUPS:1
;PRINT.SIZE.MIN.X:-3
;PRINT.SIZE.MIN.Y:6
;PRINT.SIZE.MIN.Z:0.24
;PRINT.SIZE.MAX.X:137.325
;PRINT.SIZE.MAX.Y:117.324
;PRINT.SIZE.MAX.Z:15.715
;END_OF_HEADER
;Generated with Cura_SteamEngine 4.10.0
T0
M82 ;absolute extrusion mode

G92 E0
M109 S200
G280 S1
G0 Z20.001
G1 F1500 E-6.5
;LAYER_COUNT:149
;LAYER:-7
M107
M204 S5000
M205 X50 Y50
G0 F9000 X131.074 Y114.313 Z0.24
M204 S4000
M205 X25 Y25
;TYPE:SUPPORT-INTERFACE
G1 F1500 E0
G1 F1200 X130.915 Y114.426 E0.00587
G1 X130.177 Y114.916 E0.03253
G1 X130.051 Y114.992 E0.03696
G1 X129.257 Y115.438 E0.06437
G1 X129.106 Y115.516 E0.06949
G1 X128.292 Y115.899 E0.09656
G1 X128.149 Y115.959 E0.10123
G1 X127.29 Y116.288 E0.12891
G1 X127.14 Y116.34 E0.13369
G1 X126.29 Y116.595 E0.1604
G1 X126.117 Y116.642 E0.16579
G1 X125.222 Y116.842 E0.1934
G1 X125.092 Y116.865 E0.19737
G1 X124.187 Y116.999 E0.2249
G1 X124.019 Y117.017 E0.22999
G1 X123.129 Y117.083 E0.25685
G1 X122.44 Y117.1 E0.27759
G1 X107.497 Y117.099 E0.72733
G1 X106.496 Y117.063 E0.75748
G1 X106.373 Y117.054 E0.76119
G1 X105.456 Y116.952 E0.78896
G1 X105.281 Y116.927 E0.79428
G1 X104.392 Y116.763 E0.82148
G1 X104.269 Y116.735 E0.82528
G1 X103.375 Y116.501 E0.85309
G1 X103.212 Y116.452 E0.85822
G1 X102.37 Y116.166 E0.88498
G1 X102.204 Y116.102 E0.89034
G1 X101.401 Y115.761 E0.91659
G1 X101.212 Y115.673 E0.92287
G1 X100.418 Y115.265 E0.94973
G1 X100.301 Y115.198 E0.95379
G1 X99.522 Y114.724 E0.98124
G1 X99.371 Y114.624 E0.98669
G1 X98.657 Y114.113 E1.01311
G1 X98.509 Y114 E1.01872
G1 X97.818 Y113.424 E1.04579
G1 X97.705 Y113.323 E1.05035
G1 X97.056 Y112.698 E1.07747
G1 X96.936 Y112.573 E1.08269
G1 X96.333 Y111.902 E1.10984
G1 X96.236 Y111.784 E1.11444
G1 X95.678 Y111.062 E1.1419
G1 X95.574 Y110.915 E1.14732
G1 X95.081 Y110.172 E1.17415
G1 X95.008 Y110.051 E1.17841
G1 X94.556 Y109.246 E1.20619
G1 X94.484 Y109.107 E1.21091
G1 X94.087 Y108.261 E1.23903
G1 X94.041 Y108.149 E1.24268
G1 X93.712 Y107.29 E1.27036
G1 X93.655 Y107.125 E1.27561
G1 X93.405 Y106.29 E1.30185
G1 X93.358 Y106.117 E1.30724
G1 X93.157 Y105.216 E1.33503
G1 X93.135 Y105.092 E1.33882
G1 X93 Y104.178 E1.36662
G1 X92.983 Y104.018 E1.37147
G1 X92.917 Y103.126 E1.39839
G1 X92.9 Y102.444 E1.41892
G1 X92.9 Y87.514 E1.86827
G1 X92.936 Y86.508 E1.89856
G1 X92.946 Y86.373 E1.90264
G1 X93.048 Y85.456 E1.93041
G1 X93.073 Y85.281 E1.93573
G1 X93.235 Y84.403 E1.9626
G1 X93.265 Y84.269 E1.96673
G1 X93.496 Y83.384 E1.99426
G1 X93.548 Y83.212 E1.99967
G1 X93.834 Y82.37 E2.02643
G1 X93.898 Y82.204 E2.03178
G1 X94.239 Y81.401 E2.05804
G1 X94.32 Y81.226 E2.06384
G1 X94.735 Y80.418 E2.09118
G1 X94.802 Y80.301 E2.09524
G1 X95.276 Y79.522 E2.12269
G1 X95.376 Y79.371 E2.12814
G1 X95.887 Y78.657 E2.15456
G1 X96 Y78.509 E2.16017
G1 X96.576 Y77.818 E2.18724
G1 X96.677 Y77.705 E2.1918
G1 X97.302 Y77.056 E2.21892
G1 X97.427 Y76.936 E2.22414
G1 X98.098 Y76.333 E2.25129
G1 X98.214 Y76.237 E2.25582
G1 X98.926 Y75.687 E2.2829
G1 X99.085 Y75.574 E2.28877
G1 X99.823 Y75.084 E2.31543
G1 X99.949 Y75.008 E2.31986
G1 X100.743 Y74.562 E2.34727
G1 X100.893 Y74.484 E2.35235
G1 X101.708 Y74.101 E2.37946
G1 X101.851 Y74.041 E2.38412
G1 X102.71 Y73.712 E2.41181
G1 X102.86 Y73.66 E2.41659
G1 X103.71 Y73.405 E2.4433
G1 X103.883 Y73.358 E2.44869
G1 X104.778 Y73.158 E2.47629
G1 X104.908 Y73.135 E2.48027
G1 X105.813 Y73.001 E2.5078
G1 X105.982 Y72.983 E2.51292
G1 X106.871 Y72.917 E2.53975
G1 X107.56 Y72.9 E2.56049
G1 X122.503 Y72.901 E3.01023
G1 X123.504 Y72.937 E3.04037
G1 X123.627 Y72.946 E3.04408
G1 X124.544 Y73.048 E3.07185
G1 X124.719 Y73.073 E3.07717
G1 X125.608 Y73.237 E3.10438
G1 X125.731 Y73.265 E3.10818
G1 X126.625 Y73.499 E3.13599
G1 X126.788 Y73.548 E3.14111
G1 X127.63 Y73.834 E3.16788
G1 X127.796 Y73.898 E3.17323
G1 X128.599 Y74.239 E3.19949
G1 X128.788 Y74.327 E3.20576
G1 X129.582 Y74.735 E3.23263
G1 X129.699 Y74.802 E3.23669
G1 X130.478 Y75.276 E3.26413
G1 X130.629 Y75.376 E3.26958
G1 X131.343 Y75.887 E3.29601
G1 X131.491 Y76 E3.30161
G1 X132.182 Y76.576 E3.32869
G1 X132.295 Y76.677 E3.33325
G1 X132.944 Y77.302 E3.36037
G1 X133.064 Y77.427 E3.36558
G1 X133.667 Y78.098 E3.39273
G1 X133.763 Y78.214 E3.39727
G1 X134.322 Y78.938 E3.4248
G1 X134.416 Y79.069 E3.42965
G1 X134.916 Y79.823 E3.45688
G1 X134.992 Y79.949 E3.46131
G1 X135.438 Y80.743 E3.48871
G1 X135.516 Y80.893 E3.4938
G1 X135.899 Y81.708 E3.52091
G1 X135.959 Y81.851 E3.52557
G1 X136.288 Y82.71 E3.55326
G1 X136.34 Y82.86 E3.55804
G1 X136.595 Y83.71 E3.58474
G1 X136.642 Y83.883 E3.59014
G1 X136.84 Y84.769 E3.61746
G1 X136.865 Y84.908 E3.62171
G1 X136.998 Y85.807 E3.64907
G1 X137.016 Y85.969 E3.65397
G1 X137.083 Y86.871 E3.68119
G1 X137.1 Y87.556 E3.70182
G1 X137.1 Y102.486 E4.15116
G1 X137.064 Y103.492 E4.18146
G1 X137.054 Y103.627 E4.18553
G1 X136.952 Y104.544 E4.2133
G1 X136.927 Y104.719 E4.21862
G1 X136.765 Y105.597 E4.24549
G1 X136.735 Y105.731 E4.24963
G1 X136.504 Y106.616 E4.27716
G1 X136.452 Y106.788 E4.28256
G1 X136.176 Y107.6 E4.30838
G1 X136.096 Y107.809 E4.31511
G1 X135.761 Y108.599 E4.34094
G1 X135.68 Y108.774 E4.34674
G1 X135.265 Y109.582 E4.37408
G1 X135.198 Y109.699 E4.37814
G1 X134.724 Y110.478 E4.40558
G1 X134.624 Y110.629 E4.41103
G1 X134.113 Y111.343 E4.43746
G1 X134 Y111.491 E4.44306
G1 X133.424 Y112.182 E4.47014
G1 X133.323 Y112.295 E4.4747
G1 X132.698 Y112.944 E4.50182
G1 X132.573 Y113.064 E4.50703
G1 X131.903 Y113.666 E4.53414
G1 X131.786 Y113.763 E4.53871
G1 X131.074 Y114.313 E4.56579
M204 S5000
M205 X50 Y50
G0 F9000 X131.2 Y114.216
M204 S4000
M205 X25 Y25
G1 F1200 X131.2 Y75.785 E5.72245
M204 S5000
M205 X50 Y50
G0 F9000 X129.6 Y74.746
M204 S4000
M205 X25 Y25
G1 F1200 X129.6 Y115.246 E6.94137
M204 S5000
M205 X50 Y50
G0 F9000 X128 Y116.017
M204 S4000
M205 X25 Y25
G1 F1200 X128 Y73.985 E8.2064
M204 S5000
M205 X50 Y50
G0 F9000 X126.4 Y73.441
M204 S4000
M205 X25 Y25
G1 F1200 X126.4 Y116.562 E9.50421
M204 S5000
M205 X50 Y50
G0 F9000 X124.8 Y116.909
M204 S4000
M205 X25 Y25
G1 F1200 X124.8 Y73.088 E10.82309
M204 S5000
M205 X50 Y50
G0 F9000 X123.2 Y72.927
M204 S4000
M205 X25 Y25
G1 F1200 X123.2 Y117.078 E12.15189
M204 S5000
M205 X50 Y50
G0 F9000 X121.6 Y117.099
M204 S4000
M205 X25 Y25
G1 F1200 X121.6 Y72.901 E13.48212
M204 S5000
M205 X50 Y50
G0 F9000 X120 Y72.901
M204 S4000
M205 X25 Y25
G1 F1200 X120 Y117.099 E14.81234
M204 S5000
M205 X50 Y50
G0 F9000 X118.4 Y117.099
M204 S4000
M205 X25 Y25
G1 F1200 X118.4 Y72.901 E16.14256
M204 S5000
M205 X50 Y50
G0 F9000 X116.8 Y72.901
M204 S4000
M205 X25 Y25
G1 F1200 X116.8 Y117.099 E17.47278
M204 S5000
M205 X50 Y50
G0 F9000 X115.2 Y117.099
M204 S4000
M205 X25 Y25
G1 F1200 X115.2 Y72.901 E18.80301
M204 S5000
M205 X50 Y50
G0 F9000 X113.6 Y72.901
M204 S4000
M205 X25 Y25
G1 F1200 X113.6 Y117.099 E20.13323
M204 S5000
M205 X50 Y50
G0 F9000 X112 Y117.099
M204 S4000
M205 X25 Y25
G1 F1200 X112 Y72.901 E21.46345
M204 S5000
M205 X50 Y50
G0 F9000 X110.4 Y72.901
M204 S4000
M205 X25 Y25
G1 F1200 X110.4 Y117.099 E22.79367
M204 S5000
M205 X50 Y50
G0 F9000 X108.8 Y117.099
M204 S4000
M205 X25 Y25
G1 F1200 X108.8 Y72.901 E24.1239
M204 S5000
M205 X50 Y50
G0 F9000 X107.2 Y72.908
M204 S4000
M205 X25 Y25
G1 F1200 X107.2 Y117.088 E25.45358
M204 S5000
M205 X50 Y50
G0 F9000 X105.6 Y116.968
M204 S4000
M205 X25 Y25
G1 F1200 X105.6 Y73.032 E26.77591
M204 S5000
M205 X50 Y50
G0 F9000 X104 Y73.331
M204 S4000
M205 X25 Y25
G1 F1200 X104 Y116.664 E28.0801
M204 S5000
M205 X50 Y50
G0 F9000 X102.4 Y116.176
M204 S4000
M205 X25 Y25
G1 F1200 X102.4 Y73.83 E29.35458
M204 S5000
M205 X50 Y50
G0 F9000 X100.8 Y74.532
M204 S4000
M205 X25 Y25
G1 F1200 X100.8 Y115.461 E30.58642
M204 S5000
M205 X50 Y50
G0 F9000 X99.2 Y114.501
M204 S4000
M205 X25 Y25
G1 F1200 X99.2 Y75.497 E31.76032
M204 S5000
M205 X50 Y50
G0 F9000 X97.6 Y76.78
M204 S4000
M205 X25 Y25
G1 F1200 X97.6 Y113.221 E32.85708
M204 S5000
M205 X50 Y50
G0 F9000 X96 Y111.478
M204 S4000
M205 X25 Y25
G1 F1200 X96 Y78.509 E33.84934
M204 S5000
M205 X50 Y50
G0 F9000 X94.4 Y81.07
M204 S4000
M205 X25 Y25
G1 F1200 X94.4 Y108.927 E34.68775
M204 S5000
M205 X50 Y50
G0 F9000 X132.8 Y112.839
M204 S4000
M205 X25 Y25
G1 F1200 X132.8 Y77.164 E35.76146
M204 S5000
M205 X50 Y50
G0 F9000 X134.4 Y79.047
M204 S4000
M205 X25 Y25
G1 F1200 X134.4 Y110.942 E36.7214
M204 S5000
M205 X50 Y50
G0 F9000 X136 Y108.036
M204 S4000
M205 X25 Y25
G1 F1200 X136 Y81.959 E37.50624
M204 S5000
M205 X50 Y50
G0 F600 X136 Y81.959 Z0.39
G0 F9000 X135.517 Y80.786
;TIME_ELAPSED:65.810012
;LAYER:-6
M204 S4000
M205 X25 Y25
;TYPE:SUPPORT
G1 F1200 X129.227 Y74.497 E37.65264
G1 X129.592 Y74.685 E37.65939
G1 X129.734 Y74.765 E37.66208
G1 X130.503 Y75.233 E37.67689
G1 X130.657 Y75.335 E37.67993
G1 X131.381 Y75.853 E37.69459
G1 X131.509 Y75.951 E37.69724
G1 X132.224 Y76.547 E37.71256
G1 X132.318 Y76.63 E37.71462
G1 X132.989 Y77.276 E37.72996
G1 X133.092 Y77.383 E37.7324
G1 X133.694 Y78.053 E37.74723
G1 X133.802 Y78.184 E37.75002
G1 X134.353 Y78.896 E37.76484
G1 X134.456 Y79.04 E37.76775
G1 X134.964 Y79.809 E37.78292
G1 X135.035 Y79.923 E37.78513
G1 X135.481 Y80.719 E37.80015
M204 S5000
M205 X50 Y50
G0 F9000 X129.227 Y74.497
M204 S4000
M205 X25 Y25
G1 F1200 X128.808 Y74.28 E37.80792
G1 X128.629 Y74.198 E37.81116
G1 X127.826 Y73.857 E37.82552
G1 X127.633 Y73.783 E37.82892
G1 X127.036 Y73.579 E37.8393
G1 X136.422 Y82.965 E38.05778
G1 X136.643 Y83.696 E38.07035
G1 X136.685 Y83.855 E38.07306
G1 X136.871 Y84.686 E38.08707
G1 X125.317 Y73.133 E38.356
G1 X124.711 Y73.02 E38.36615
G1 X124.548 Y72.997 E38.36886
G1 X123.829 Y72.917 E38.38076
G1 X137.08 Y86.168 E38.68921
G1 X137.132 Y86.868 E38.70076
G1 X137.141 Y87.052 E38.70379
G1 X137.149 Y87.51 E38.71133
G1 X122.489 Y72.851 E39.05256
G1 X121.217 Y72.851 E39.07349
G1 X137.149 Y88.783 E39.44434
G1 X137.149 Y90.056 E39.46529
G1 X119.944 Y72.851 E39.86577
G1 X118.671 Y72.851 E39.88672
G1 X137.149 Y91.329 E40.31683
G1 X137.149 Y92.601 E40.33777
G1 X117.398 Y72.851 E40.7975
G1 X116.126 Y72.851 E40.81844
G1 X137.149 Y93.874 E41.30779
G1 X137.149 Y95.147 E41.32874
G1 X114.853 Y72.851 E41.84772
G1 X113.58 Y72.851 E41.86867
G1 X137.149 Y96.42 E42.41729
G1 X137.149 Y97.693 E42.43824
G1 X112.307 Y72.851 E43.01648
G1 X111.034 Y72.851 E43.03744
G1 X137.149 Y98.965 E43.6453
G1 X137.149 Y100.238 E43.66625
G1 X109.762 Y72.851 E44.30374
G1 X108.489 Y72.851 E44.32469
G1 X137.149 Y101.511 E44.9918
G1 X137.149 Y102.486 E45.00785
G1 X137.139 Y102.773 E45.01258
G1 X107.221 Y72.856 E45.70896
G1 X107.051 Y72.858 E45.71176
G1 X106.867 Y72.866 E45.71479
G1 X106.022 Y72.929 E45.72874
G1 X137.066 Y103.973 E46.45135
G1 X137.001 Y104.549 E46.46089
G1 X136.978 Y104.711 E46.46358
G1 X136.909 Y105.089 E46.46991
G1 X104.904 Y73.084 E47.21488
G1 X104.772 Y73.109 E47.21709
G1 X103.86 Y73.313 E47.23248
G1 X136.68 Y106.133 E47.99642
G1 X136.547 Y106.642 E48.00508
G1 X136.499 Y106.803 E48.00785
G1 X136.392 Y107.118 E48.01332
G1 X102.876 Y73.602 E48.79347
G1 X102.845 Y73.611 E48.794
G1 X102.691 Y73.664 E48.79668
G1 X101.95 Y73.949 E48.80975
G1 X136.048 Y108.047 E49.60344
G1 X135.806 Y108.619 E49.61367
G1 X135.724 Y108.797 E49.61689
G1 X135.657 Y108.928 E49.61931
G1 X101.073 Y74.344 E50.42432
G1 X100.856 Y74.445 E50.42826
G1 X100.718 Y74.518 E50.43083
G1 X100.241 Y74.785 E50.43983
G1 X135.218 Y109.762 E51.25398
G1 X134.766 Y110.503 E51.26827
G1 X134.734 Y110.551 E51.26922
G1 X99.453 Y75.27 E52.09045
G1 X99.045 Y75.539 E52.09849
G1 X98.907 Y75.637 E52.10128
G1 X98.705 Y75.794 E52.10549
G1 X134.206 Y111.296 E52.93186
G1 X134.145 Y111.382 E52.93359
G1 X134.048 Y111.51 E52.93623
G1 X133.638 Y112.001 E52.94676
G1 X97.995 Y76.357 E53.77643
G1 X97.383 Y76.907 E53.78997
G1 X97.326 Y76.962 E53.79128
G1 X133.032 Y112.668 E54.6224
G1 X132.722 Y112.99 E54.62976
G1 X132.615 Y113.093 E54.6322
G1 X132.388 Y113.296 E54.63722
G1 X96.7 Y77.608 E55.46792
G1 X96.63 Y77.681 E55.46959
G1 X96.537 Y77.783 E55.47186
G1 X96.112 Y78.293 E55.48278
G1 X131.705 Y113.886 E56.31128
G1 X131.094 Y114.359 E56.324
G1 X130.983 Y114.437 E56.32623
G1 X95.564 Y79.018 E57.15067
G1 X95.334 Y79.341 E57.1572
G1 X95.232 Y79.496 E57.16025
G1 X95.057 Y79.783 E57.16579
G1 X130.22 Y114.946 E57.98427
G1 X130.19 Y114.966 E57.98486
G1 X130.075 Y115.036 E57.98708
G1 X129.409 Y115.409 E57.99964
G1 X94.589 Y80.588 E58.81016
G1 X94.274 Y81.202 E58.82152
G1 X94.192 Y81.379 E58.82473
G1 X94.166 Y81.438 E58.82579
G1 X128.556 Y115.829 E59.62629
G1 X128.3 Y115.949 E59.63094
G1 X128.166 Y116.005 E59.63333
G1 X127.656 Y116.2 E59.64232
G1 X93.792 Y82.337 E60.43056
G1 X93.782 Y82.365 E60.43105
G1 X93.499 Y83.195 E60.44548
G1 X93.471 Y83.288 E60.44708
G1 X126.704 Y116.522 E61.22065
G1 X126.293 Y116.645 E61.22771
G1 X126.142 Y116.686 E61.23029
G1 X125.695 Y116.785 E61.23782
G1 X93.207 Y84.297 E61.99404
G1 X93.186 Y84.391 E61.99563
G1 X93.02 Y85.287 E62.01063
G1 X93.008 Y85.371 E62.01202
G1 X124.621 Y116.985 E62.74789
G1 X124.196 Y117.048 E62.75496
G1 X124.025 Y117.067 E62.75779
G1 X123.472 Y117.108 E62.76692
G1 X92.884 Y86.52 E63.47891
G1 X92.848 Y87.512 E63.49525
G1 X92.848 Y87.757 E63.49928
G1 X122.24 Y117.149 E64.18343
G1 X120.967 Y117.149 E64.20439
G1 X92.848 Y89.03 E64.85891
G1 X92.848 Y90.303 E64.87986
G1 X119.694 Y117.149 E65.50475
G1 X118.422 Y117.149 E65.52569
G1 X92.848 Y91.575 E66.12097
G1 X92.848 Y92.848 E66.14193
G1 X117.149 Y117.149 E66.70758
G1 X115.876 Y117.149 E66.72853
G1 X92.848 Y94.121 E67.26455
G1 X92.849 Y95.395 E67.28552
G1 X114.602 Y117.148 E67.79186
G1 X113.33 Y117.148 E67.8128
G1 X92.849 Y96.667 E68.28953
G1 X92.849 Y97.94 E68.31048
G1 X112.057 Y117.148 E68.75758
G1 X110.784 Y117.148 E68.77854
G1 X92.849 Y99.213 E69.19601
G1 X92.849 Y100.486 E69.21696
G1 X109.511 Y117.148 E69.6048
G1 X108.238 Y117.148 E69.62575
G1 X92.849 Y101.759 E69.98396
G1 X92.85 Y102.442 E69.9952
G1 X92.857 Y102.946 E70.0035
G1 X92.862 Y103.045 E70.00513
G1 X106.946 Y117.128 E70.33295
G1 X106.491 Y117.112 E70.34044
G1 X106.366 Y117.103 E70.34251
G1 X105.557 Y117.012 E70.35591
G1 X92.988 Y104.443 E70.64847
G1 X93.082 Y105.086 E70.65917
G1 X93.108 Y105.225 E70.6615
G1 X93.284 Y106.012 E70.67477
G1 X103.982 Y116.71 E70.92379
G1 X103.358 Y116.547 E70.9344
G1 X103.183 Y116.495 E70.93741
G1 X102.365 Y116.216 E70.95163
G1 X102.172 Y116.142 E70.95503
G1 X102.118 Y116.118 E70.95601
G1 X93.886 Y107.887 E71.14761
G1 X93.99 Y108.156 E71.15236
G1 X94.041 Y108.281 E71.15458
G1 X94.439 Y109.13 E71.17001
G1 X94.517 Y109.28 E71.17279
G1 X94.958 Y110.064 E71.1876
G1 X95.033 Y110.189 E71.19
G1 X95.263 Y110.537 E71.19686
G1 X99.486 Y114.759 E71.29515
G1 X99.342 Y114.663 E71.298
G1 X98.618 Y114.146 E71.31264
G1 X98.49 Y114.047 E71.31531
G1 X97.774 Y113.452 E71.33063
G1 X97.679 Y113.367 E71.33273
G1 X97.01 Y112.722 E71.34802
G1 X96.907 Y112.615 E71.35047
G1 X96.305 Y111.944 E71.3653
G1 X96.19 Y111.806 E71.36826
G1 X95.638 Y111.091 E71.38313
G1 X95.532 Y110.943 E71.38612
M204 S5000
M205 X50 Y50
G0 F600 X95.532 Y110.943 Z0.49
G0 F9000 X106.098 Y117.25
;TIME_ELAPSED:168.996387
;LAYER:-5
M204 S4000
M205 X25 Y25
;TYPE:SUPPORT-INTERFACE
G1 F1500 X123.9 Y117.25 E71.48379
G1 X123.136 Y117.307 E71.488
G1 X122.956 Y117.316 E71.48899
G1 X122.441 Y117.324 E71.49181
G1 X107.489 Y117.324 E71.57384
G1 X106.492 Y117.288 E71.57932
G1 X106.342 Y117.277 E71.58014
M204 S5000
M205 X50 Y50
G0 F9000 X123.9 Y117.25
M204 S4000
M205 X25 Y25
G1 F1500 X124.048 Y117.239 E71.58096
G1 X124.217 Y117.221 E71.58189
G1 X125.121 Y117.087 E71.5869
G1 X125.265 Y117.061 E71.58771
G1 X125.985 Y116.9 E71.59175
G1 X104.011 Y116.9 E71.71231
G1 X103.319 Y116.719 E71.71624
G1 X103.133 Y116.663 E71.7173
G1 X102.801 Y116.55 E71.71923
G1 X127.215 Y116.55 E71.85317
G1 X127.376 Y116.495 E71.85411
G1 X128.147 Y116.2 E71.85863
G1 X101.859 Y116.2 E72.00286
