;FLAVOR:Marlin
;TIME:1959
;Filament used: 1.1216m
;Layer height: 0.2
;MINX:95.397
;MINY:95.393
;MINZ:0.24
;MAXX:139.599
;MAXY:139.612
;MAXZ:26.09
;Generated with Cura_SteamEngine 4.10.0
M140 S65
M105
M190 S65
M104 S200
M105
M109 S200
M82 ;absolute extrusion mode
; Ender 3 Custom Start G-code
G92 E0 ; Reset Extruder
G28 ; Home all axes
G1 Z2.0 F3000 ; Move Z Axis up little to prevent scratching of Heat Bed
G1 X0.1 Y20 Z0.3 F5000.0 ; Move to start position
G1 X0.1 Y200.0 Z0.3 F1500.0 E15 ; Draw the first line
G1 X0.4 Y200.0 Z0.3 F5000.0 ; Move to side a little
G1 X0.4 Y20 Z0.3 F1500.0 E30 ; Draw the second line
G92 E0 ; Reset Extruder
G1 Z2.0 F3000 ; Move Z Axis up little to prevent scratching of Heat Bed
G1 X5 Y20 Z0.3 F5000.0 ; Move over to prevent blob squish
G92 E0
G92 E0
G1 F2700 E-5
;LAYER_COUNT:125
;LAYER:-6
M107
G0 F9000 X102.651 Y102.595 Z0.24
;TYPE:SUPPORT-INTERFACE
G1 F2700 E0
G1 F1125 X103.376 Y101.896 E0.08039
G1 X103.507 Y101.777 E0.09452
G1 X104.163 Y101.228 E0.1628
G1 X104.827 Y100.705 E0.23027
G1 X105.593 Y100.145 E0.30601
G1 X105.756 Y100.035 E0.32171
G1 X106.459 Y99.59 E0.38813
G1 X107.104 Y99.209 E0.44792
G1 X107.184 Y99.163 E0.45529
G1 X108.021 Y98.708 E0.53134
G1 X108.147 Y98.644 E0.54262
G1 X108.922 Y98.289 E0.61066
G1 X109.717 Y97.954 E0.67953
G1 X110.594 Y97.619 E0.75447
G1 X110.791 Y97.551 E0.7711
G1 X111.339 Y97.383 E0.81686
G1 X111.576 Y97.313 E0.83658
G1 X112.384 Y97.092 E0.90345
G1 X113.307 Y96.875 E0.97914
G1 X113.475 Y96.842 E0.9928
G1 X114.204 Y96.721 E1.05179
G1 X114.35 Y96.698 E1.06359
G1 X115.147 Y96.592 E1.12777
G1 X116.567 Y96.475 E1.2415
G1 X116.652 Y96.47 E1.2483
G1 X117.059 Y96.458 E1.2808
G1 X117.939 Y96.458 E1.35105
G1 X118.345 Y96.469 E1.38347
G1 X118.435 Y96.475 E1.39067
G1 X119.817 Y96.59 E1.50137
G1 X119.975 Y96.607 E1.51405
G1 X120.659 Y96.7 E1.56915
G1 X120.798 Y96.72 E1.58036
G1 X121.69 Y96.875 E1.65263
G1 X121.857 Y96.909 E1.66624
G1 X122.641 Y97.098 E1.73061
G1 X123.481 Y97.329 E1.80016
G1 X124.451 Y97.633 E1.8813
G1 X124.543 Y97.666 E1.8891
G1 X125.323 Y97.969 E1.9559
G1 X126.118 Y98.307 E2.02485
G1 X127.019 Y98.727 E2.10421
G1 X127.124 Y98.78 E2.1136
G1 X127.851 Y99.182 E2.17991
G1 X128.547 Y99.594 E2.24447
G1 X129.423 Y100.155 E2.32751
G1 X129.55 Y100.243 E2.33984
G1 X130.192 Y100.719 E2.40364
G1 X130.88 Y101.262 E2.4736
G1 X131.617 Y101.889 E2.55084
G1 X131.73 Y101.991 E2.56299
G1 X132.343 Y102.588 E2.6313
G1 X132.887 Y103.15 E2.69373
G1 X133.593 Y103.936 E2.77807
G1 X133.695 Y104.058 E2.79076
G1 X134.2 Y104.703 E2.85615
G1 X134.637 Y105.296 E2.91495
G1 X134.729 Y105.424 E2.92753
G1 X135.237 Y106.17 E2.99958
G1 X135.33 Y106.317 E3.01346
G1 X135.724 Y106.986 E3.07544
G1 X135.778 Y107.081 E3.08416
G1 X136.128 Y107.72 E3.14232
G1 X136.603 Y108.664 E3.22668
G1 X136.658 Y108.784 E3.23721
G1 X137.002 Y109.604 E3.3082
G1 X137.271 Y110.307 E3.36828
G1 X137.611 Y111.293 E3.45154
G1 X137.651 Y111.422 E3.46232
G1 X137.842 Y112.131 E3.52093
G1 X137.877 Y112.268 E3.53222
G1 X138.068 Y113.073 E3.59826
G1 X138.255 Y114.01 E3.67453
G1 X138.278 Y114.15 E3.68586
G1 X138.379 Y114.905 E3.74666
G1 X138.395 Y115.047 E3.75807
G1 X138.464 Y115.739 E3.81358
G1 X138.477 Y115.881 E3.82496
G1 X138.536 Y116.807 E3.89903
G1 X138.541 Y116.965 E3.91165
G1 X138.537 Y117.775 E3.97631
G1 X138.513 Y118.525 E4.0362
G1 X138.506 Y118.688 E4.04923
G1 X138.444 Y119.587 E4.12116
G1 X138.424 Y119.78 E4.13665
G1 X138.308 Y120.615 E4.20394
G1 X138.176 Y121.393 E4.26693
G1 X137.967 Y122.404 E4.34934
G1 X137.935 Y122.543 E4.36073
G1 X137.709 Y123.353 E4.42785
G1 X137.455 Y124.168 E4.496
G1 X137.144 Y125.054 E4.57095
G1 X137.079 Y125.223 E4.58541
G1 X136.782 Y125.92 E4.64588
G1 X136.437 Y126.666 E4.71149
G1 X136.39 Y126.764 E4.72017
G1 X135.945 Y127.637 E4.79839
G1 X135.887 Y127.743 E4.80803
G1 X135.459 Y128.461 E4.87476
G1 X135.011 Y129.165 E4.94137
G1 X134.436 Y129.997 E5.0221
G1 X134.352 Y130.11 E5.03334
G1 X133.805 Y130.796 E5.10337
G1 X133.263 Y131.435 E5.17026
G1 X132.614 Y132.146 E5.2471
G1 X132.517 Y132.247 E5.25828
G1 X131.901 Y132.837 E5.32637
G1 X131.358 Y133.328 E5.38481
G1 X131.236 Y133.436 E5.39781
G1 X130.533 Y134.026 E5.47107
G1 X130.413 Y134.121 E5.48329
G1 X129.742 Y134.611 E5.54961
G1 X129.052 Y135.085 E5.61644
G1 X128.235 Y135.604 E5.6937
G1 X128.071 Y135.701 E5.70891
G1 X127.343 Y136.096 E5.77502
G1 X126.579 Y136.48 E5.84328
G1 X125.702 Y136.883 E5.92032
G1 X125.55 Y136.946 E5.93346
G1 X124.791 Y137.235 E5.99829
G1 X123.99 Y137.514 E6.06599
G1 X123.076 Y137.795 E6.14232
G1 X122.891 Y137.845 E6.15762
G1 X122.138 Y138.022 E6.21937
G1 X121.237 Y138.204 E6.29274
G1 X120.278 Y138.363 E6.37034
G1 X120.116 Y138.383 E6.38337
G1 X119.288 Y138.463 E6.44977
G1 X118.526 Y138.514 E6.51073
G1 X117.479 Y138.548 E6.59435
G1 X117.356 Y138.547 E6.60417
G1 X116.499 Y138.515 E6.67263
G1 X115.695 Y138.462 E6.73695
G1 X114.673 Y138.355 E6.81897
G1 X114.515 Y138.334 E6.8317
G1 X113.683 Y138.189 E6.89911
G1 X112.976 Y138.046 E6.95669
G1 X112.839 Y138.016 E6.96788
G1 X111.94 Y137.799 E7.04171
G1 X111.79 Y137.758 E7.05412
G1 X110.963 Y137.498 E7.12332
G1 X110.171 Y137.221 E7.1903
G1 X109.253 Y136.864 E7.26892
G1 X109.132 Y136.812 E7.27943
G1 X108.358 Y136.449 E7.34768
G1 X107.611 Y136.071 E7.4145
G1 X106.766 Y135.605 E7.49153
G1 X106.653 Y135.537 E7.50206
G1 X105.913 Y135.061 E7.5723
G1 X105.22 Y134.584 E7.63945
G1 X104.445 Y134.008 E7.71653
G1 X104.292 Y133.886 E7.73215
G1 X103.665 Y133.349 E7.79805
G1 X103.057 Y132.798 E7.86355
G1 X102.357 Y132.116 E7.94156
G1 X102.256 Y132.011 E7.95319
G1 X101.69 Y131.381 E8.02079
G1 X101.153 Y130.745 E8.08724
G1 X100.547 Y129.973 E8.16558
G1 X100.454 Y129.846 E8.17815
G1 X99.978 Y129.147 E8.24565
G1 X99.557 Y128.487 E8.30814
G1 X99.035 Y127.6 E8.3903
G1 X98.963 Y127.469 E8.40223
G1 X98.576 Y126.695 E8.4713
G1 X98.268 Y126.03 E8.52981
G1 X98.206 Y125.89 E8.54203
G1 X97.858 Y125.061 E8.6138
G1 X97.795 Y124.896 E8.62789
G1 X97.517 Y124.08 E8.69671
G1 X97.301 Y123.384 E8.75488
G1 X97.262 Y123.249 E8.7661
G1 X97.026 Y122.375 E8.83836
G1 X96.983 Y122.194 E8.85321
G1 X96.831 Y121.431 E8.91531
G1 X96.687 Y120.587 E8.98366
G1 X96.561 Y119.624 E9.06119
G1 X96.542 Y119.438 E9.07611
G1 X96.492 Y118.646 E9.13946
G1 X96.462 Y117.739 E9.2119
G1 X96.466 Y116.777 E9.28869
G1 X96.472 Y116.612 E9.30187
G1 X96.527 Y115.826 E9.36476
G1 X96.604 Y115.052 E9.42685
G1 X96.617 Y114.939 E9.43593
G1 X96.747 Y113.993 E9.51216
G1 X96.775 Y113.833 E9.52512
G1 X96.925 Y113.101 E9.58477
G1 X97.12 Y112.278 E9.65228
G1 X97.147 Y112.171 E9.66109
G1 X97.402 Y111.251 E9.7373
G1 X97.45 Y111.101 E9.74987
G1 X97.722 Y110.322 E9.81573
G1 X97.986 Y109.635 E9.87448
G1 X98.038 Y109.506 E9.88559
G1 X98.409 Y108.638 E9.96094
G1 X98.474 Y108.498 E9.97326
G1 X98.844 Y107.772 E10.0383
G1 X99.221 Y107.083 E10.101
G1 X99.274 Y106.99 E10.10954
G1 X99.764 Y106.166 E10.18607
G1 X99.84 Y106.047 E10.19734
G1 X100.342 Y105.322 E10.26773
G1 X100.86 Y104.625 E10.33705
G1 X101.435 Y103.903 E10.41073
G1 X101.541 Y103.778 E10.42381
G1 X102.098 Y103.165 E10.48993
G1 X102.651 Y102.595 E10.55332
G0 F9000 X102.4 Y102.853
G1 F1125 X102.4 Y132.157 E12.89249
G0 F9000 X104 Y133.635
G1 F1125 X104 Y101.364 E15.4685
G0 F9000 X105.6 Y100.14
G1 F1125 X105.6 Y134.845 E18.23881
G0 F9000 X107.2 Y135.844
G1 F1125 X107.2 Y99.154 E21.16756
G0 F9000 X108.8 Y98.344
G1 F1125 X108.8 Y136.656 E24.22579
G0 F9000 X110.4 Y137.301
G1 F1125 X110.4 Y97.693 E27.38747
G0 F9000 X112 Y97.197
G1 F1125 X112 Y137.813 E30.62962
G0 F9000 X113.6 Y138.172
G1 F1125 X113.6 Y96.821 E33.93043
G0 F9000 X115.2 Y96.587
G1 F1125 X115.2 Y138.41 E37.26892
G0 F9000 X116.8 Y138.526
G1 F1125 X116.8 Y96.465 E40.62642
G0 F9000 X118.4 Y96.473
G1 F1125 X118.4 Y138.519 E43.98271
G0 F9000 X120 Y138.395
G1 F1125 X120 Y96.611 E47.31809
G0 F9000 X121.6 Y96.86
G1 F1125 X121.6 Y138.131 E50.61252
G0 F9000 X123.2 Y137.757
G1 F1125 X123.2 Y97.252 E53.8458
G0 F9000 X124.8 Y97.766
G1 F1125 X124.8 Y137.232 E56.99615
G0 F9000 X126.4 Y136.563
G1 F1125 X126.4 Y98.439 E60.03937
G0 F9000 X128 Y99.271
G1 F1125 X128 Y135.74 E62.95049
G0 F9000 X129.6 Y134.709
G1 F1125 X129.6 Y100.281 E65.69868
G0 F9000 X131.2 Y101.535
G1 F1125 X131.2 Y133.467 E68.24763
G0 F9000 X132.8 Y131.943
G1 F1125 X132.8 Y103.061 E70.55311
G0 F9000 X134.4 Y104.975
G1 F1125 X134.4 Y130.046 E72.55439
G0 F9000 X136 Y127.53
G1 F1125 X136 Y107.487 E74.15431
G0 F9000 X137.6 Y111.262
G1 F1125 X137.6 Y123.703 E75.1474
G1 F2700 E70.1474
G0 F9000 X138.617 Y124.018
G0 X138.063 Y125.63
G0 X136.884 Y128.139
G0 X135.297 Y130.623
G0 X133.387 Y132.879
G0 X131.201 Y134.856
G0 X128.794 Y136.51
G0 X127.035 Y137.442
G0 X125.147 Y138.238
G0 X123.144 Y138.879
G0 X120.435 Y139.416
G0 X117.497 Y139.612
G0 X114.542 Y139.412
G0 X111.681 Y138.831
G0 X109.794 Y138.217
G0 X107.892 Y137.406
G0 X106.086 Y136.438
G0 X103.801 Y134.855
G0 X101.607 Y132.872
G0 X99.963 Y130.953
G0 X100.8 Y130.295
G1 F2700 E75.1474
G1 F1125 X100.8 Y104.705 E77.19011
G0 F9000 X99.2 Y107.121
G1 F1125 X99.2 Y127.88 E78.84718
G0 F9000 X97.6 Y124.323
G1 F1125 X97.6 Y110.671 E79.93694
G1 F2700 E74.93694
G0 F300 X97.6 Y110.671 Z0.54
G0 F9000 X96.442 Y110.76
G0 X95.884 Y112.881
G0 X95.547 Y114.935
G0 X95.402 Y116.749
G0 X95.482 Y119.534
G0 X95.784 Y121.627
G0 X96.282 Y123.692
G0 X96.873 Y125.463
G0 X98.017 Y127.957
G0 X99.136 Y129.804
G0 X99.841 Y130.755
G0 X100.884 Y132.076
G0 X101.765 Y131.463
;TIME_ELAPSED:63.063244
;LAYER:-5
;TYPE:SUPPORT
G1 F2700 E79.93694
G1 F1125 X103.502 Y133.2 E80.18205
G1 X103.056 Y132.797 E80.24203
G1 X102.357 Y132.115 E80.33947
G1 X102.256 Y132.009 E80.35408
G0 F9000 X103.502 Y133.2
G1 F1125 X103.665 Y133.348 E80.37605
G1 X104.291 Y133.885 E80.45835
G1 X104.444 Y134.007 E80.47787
G1 X105.22 Y134.583 E80.5743
G1 X105.913 Y135.06 E80.65825
G1 X106.652 Y135.536 E80.74596
G1 X106.766 Y135.604 E80.7592
G1 X107.611 Y136.07 E80.85549
G1 X107.965 Y136.249 E80.89507
G1 X98.741 Y127.025 E82.19667
G1 X98.575 Y126.694 E82.23362
G1 X98.268 Y126.029 E82.30671
G1 X98.205 Y125.889 E82.32202
G1 X97.857 Y125.06 E82.41174
G1 X97.794 Y124.895 E82.42936
G1 X97.675 Y124.545 E82.46624
G1 X110.446 Y137.316 E84.26837
G1 X110.962 Y137.497 E84.32293
G1 X111.79 Y137.757 E84.40953
G1 X111.939 Y137.798 E84.42495
G1 X112.47 Y137.926 E84.47945
G1 X97.065 Y122.521 E86.65326
G1 X97.025 Y122.374 E86.66846
G1 X96.983 Y122.193 E86.687
G1 X96.831 Y121.43 E86.76463
G1 X96.715 Y120.757 E86.83277
G1 X114.244 Y138.286 E89.3063
G1 X114.515 Y138.333 E89.33375
G1 X114.672 Y138.353 E89.34954
G1 X115.695 Y138.461 E89.45218
G1 X115.843 Y138.47 E89.46698
G1 X96.523 Y119.151 E92.19317
G1 X96.491 Y118.645 E92.24376
G1 X96.461 Y117.738 E92.33431
G1 X96.461 Y117.674 E92.34069
G1 X117.331 Y138.544 E95.28568
G1 X117.355 Y138.546 E95.28808
G1 X117.478 Y138.547 E95.30035
G1 X118.525 Y138.513 E95.40488
G1 X118.702 Y138.501 E95.42258
G1 X96.493 Y116.292 E98.55651
G1 X96.527 Y115.825 E98.60323
G1 X96.604 Y115.051 E98.68084
G1 X96.609 Y114.994 E98.68655
G1 X120.007 Y138.392 E101.98826
G1 X120.116 Y138.382 E101.99918
G1 X120.277 Y138.362 E102.01537
G1 X121.232 Y138.203 E102.11197
G1 X96.789 Y113.76 E105.56115
G1 X96.924 Y113.1 E105.62836
G1 X97.042 Y112.598 E105.67982
G1 X122.402 Y137.958 E109.25839
G1 X122.89 Y137.844 E109.30839
G1 X123.076 Y137.793 E109.32764
G1 X123.515 Y137.658 E109.37346
G1 X97.337 Y111.479 E113.06753
G1 X97.401 Y111.249 E113.09136
G1 X97.449 Y111.099 E113.10707
G1 X97.688 Y110.416 E113.17927
G1 X124.579 Y137.307 E116.97388
G1 X124.79 Y137.234 E116.99616
G1 X125.549 Y136.945 E117.0772
G1 X125.607 Y136.921 E117.08346
G1 X98.083 Y109.397 E120.9674
G1 X98.409 Y108.637 E121.04991
G1 X98.473 Y108.497 E121.06527
G1 X98.515 Y108.415 E121.07446
G1 X126.579 Y136.478 E125.03453
G1 X127.342 Y136.095 E125.11971
G1 X127.515 Y136 E125.13941
G1 X98.999 Y107.485 E129.16325
G1 X99.22 Y107.082 E129.20911
G1 X99.273 Y106.989 E129.21979
G1 X99.513 Y106.585 E129.26668
G1 X128.416 Y135.487 E133.34513
G1 X129.052 Y135.084 E133.42026
G1 X129.273 Y134.93 E133.44714
G1 X100.064 Y105.721 E137.56885
G1 X100.341 Y105.321 E137.61739
G1 X100.655 Y104.897 E137.67004
G1 X130.102 Y134.345 E141.8254
G1 X130.413 Y134.119 E141.86376
G1 X130.533 Y134.025 E141.87897
G1 X130.893 Y133.722 E141.92592
G1 X101.273 Y104.102 E146.10562
G1 X101.434 Y103.902 E146.13124
G1 X101.541 Y103.777 E146.14766
G1 X101.931 Y103.345 E146.20573
G1 X131.649 Y133.063 E150.39926
G1 X131.901 Y132.836 E150.4331
G1 X132.378 Y132.378 E150.49909
G1 X102.622 Y102.622 E154.69798
G1 X102.649 Y102.594 E154.70186
G1 X103.342 Y101.928 E154.79776
G1 X133.065 Y131.651 E158.992
G1 X133.262 Y131.434 E159.02124
G1 X133.722 Y130.893 E159.0921
G1 X104.105 Y101.276 E163.27138
G1 X104.162 Y101.227 E163.27888
G1 X104.826 Y100.705 E163.36316
G1 X104.897 Y100.654 E163.37188
G1 X134.351 Y130.109 E167.52823
G1 X134.435 Y129.997 E167.5422
G1 X134.933 Y129.276 E167.62963
G1 X105.718 Y100.061 E171.75218
G1 X105.755 Y100.035 E171.75669
G1 X106.458 Y99.589 E171.83977
G1 X106.585 Y99.514 E171.85448
G1 X135.485 Y128.414 E175.93259
G1 X135.886 Y127.743 E176.01058
G1 X135.944 Y127.637 E176.02264
G1 X136.004 Y127.519 E176.03585
G1 X107.485 Y98.999 E180.06026
G1 X108.02 Y98.707 E180.12107
G1 X108.146 Y98.644 E180.13513
G1 X108.419 Y98.519 E180.16509
G1 X136.477 Y126.577 E184.12438
G1 X136.781 Y125.92 E184.19661
G1 X136.917 Y125.603 E184.23103
G1 X109.401 Y98.087 E188.11383
G1 X109.716 Y97.954 E188.14795
G1 X110.415 Y97.687 E188.22261
G1 X137.309 Y124.581 E192.01765
G1 X137.454 Y124.167 E192.06142
G1 X137.658 Y123.515 E192.12958
G1 X111.482 Y97.34 E195.82323
G1 X111.575 Y97.312 E195.83292
G1 X112.383 Y97.091 E195.9165
G1 X112.598 Y97.041 E195.93853
G1 X137.965 Y122.409 E199.51816
G1 X137.966 Y122.404 E199.51867
G1 X138.175 Y121.393 E199.62168
G1 X138.203 Y121.232 E199.63798
G1 X113.764 Y96.793 E203.08659
G1 X114.203 Y96.72 E203.13099
G1 X114.349 Y96.698 E203.14573
G1 X114.997 Y96.612 E203.21095
G1 X138.392 Y120.007 E206.51224
G1 X138.423 Y119.779 E206.5352
G1 X138.443 Y119.587 E206.55446
G1 X138.504 Y118.705 E206.64268
G1 X116.296 Y96.497 E209.77646
G1 X116.566 Y96.474 E209.8035
G1 X116.651 Y96.47 E209.81199
G1 X117.058 Y96.457 E209.85262
G1 X117.671 Y96.457 E209.91379
G1 X138.538 Y117.325 E212.85842
G1 X138.54 Y116.965 E212.89434
G1 X138.534 Y116.806 E212.91022
G1 X138.476 Y115.881 E213.0027
G1 X138.473 Y115.846 E213.0062
G1 X119.163 Y96.535 E215.73112
G1 X119.815 Y96.59 E215.79641
G1 X119.974 Y96.607 E215.81236
G1 X120.658 Y96.7 E215.88124
G1 X120.756 Y96.714 E215.89112
G1 X138.29 Y114.249 E218.36543
G1 X138.277 Y114.149 E218.37549
G1 X138.254 Y114.01 E218.38955
G1 X138.067 Y113.072 E218.48498
G1 X137.924 Y112.468 E218.54692
G1 X122.526 Y97.07 E220.71974
G1 X122.639 Y97.097 E220.73133
G1 X123.48 Y97.329 E220.81838
G1 X124.45 Y97.633 E220.91981
G1 X124.533 Y97.663 E220.92862
G1 X137.32 Y110.45 E222.733
G1 X137.27 Y110.307 E222.74812
G1 X137.001 Y109.603 E222.82332
G1 X136.656 Y108.784 E222.91199
G1 X136.601 Y108.663 E222.92525
G1 X136.251 Y107.967 E223.00299
G1 X127.005 Y98.721 E224.3077
G1 X127.018 Y98.726 E224.30909
G1 X127.123 Y98.779 E224.32082
G1 X127.85 Y99.181 E224.40372
G1 X128.546 Y99.594 E224.48447
G1 X129.422 Y100.155 E224.58826
G1 X129.549 Y100.242 E224.60362
G1 X130.191 Y100.718 E224.68337
G1 X130.879 Y101.261 E224.77082
G1 X131.424 Y101.726 E224.84231
G1 X133.221 Y103.522 E225.09581
G0 F9000 X132.886 Y103.149
G1 F1125 X132.342 Y102.588 E225.17379
G1 X131.729 Y101.99 E225.25924
G1 X131.615 Y101.889 E225.27443
G1 X131.424 Y101.726 E225.29949
G1 F2700 E220.29949
G0 F300 X131.424 Y101.726 Z0.74
G0 F9000 X132.113 Y100.914
G0 X130.02 Y99.273
