;START_OF_HEADER
;HEADER_VERSION:0.1
;FLAVOR:Griffin
;GENERATOR.NAME:Cura_SteamEngine
;GENERATOR.VERSION:4.10.0
;GENERATOR.BUILD_DATE:2021-06-29
;TARGET_MACHINE.NAME:Ultimaker S3
;EXTRUDER_TRAIN.0.INITIAL_TEMPERATURE:200.5
;EXTRUDER_TRAIN.0.MATERIAL.VOLUME_USED:19493
;EXTRUDER_TRAIN.0.MATERIAL.GUID:506c9f0d-e3aa-4bd4-b2d2-23e2425b1aa9
;EXTRUDER_TRAIN.0.NOZZLE.DIAMETER:0.4
;EXTRUDER_TRAIN.0.NOZZLE.NAME:AA 0.4
;BUILD_PLATE.TYPE:glass
;BUILD_PLATE.INITIAL_TEMPERATURE:65.5
;PRINT.TIME:20350
;PRINT.GROUPS:1
;PRINT.SIZE.MIN.X:-3
;PRINT.SIZE.MIN.Y:6
;PRINT.SIZE.MIN.Z:0.24
;PRINT.SIZE.MAX.X:142.95
;PRINT.SIZE.MAX.Y:122.949
;PRINT.SIZE.MAX.Z:26.915
;END_OF_HEADER
;Generated with Cura_SteamEngine 4.10.0
T0
M82 ;absolute extrusion mode

G92 E0
M109 S200
G280 S1
G0 Z20.001
G1 F1500 E-6.5
;LAYER_COUNT:262
;LAYER:-7
M107
M204 S5000
M205 X50 Y50
G0 F9000 X136.699 Y119.938 Z0.24
M204 S4000
M205 X25 Y25
;TYPE:SUPPORT-INTERFACE
G1 F1500 E0
G1 F1200 X136.54 Y120.051 E0.00587
G1 X135.802 Y120.541 E0.03253
G1 X135.676 Y120.617 E0.03696
G1 X134.882 Y121.063 E0.06437
G1 X134.731 Y121.141 E0.06949
G1 X133.917 Y121.524 E0.09656
G1 X133.774 Y121.584 E0.10123
G1 X132.915 Y121.913 E0.12891
G1 X132.765 Y121.965 E0.13369
G1 X131.915 Y122.22 E0.1604
G1 X131.742 Y122.267 E0.16579
G1 X130.847 Y122.467 E0.1934
G1 X130.717 Y122.49 E0.19737
G1 X129.812 Y122.624 E0.2249
G1 X129.644 Y122.642 E0.22999
G1 X128.754 Y122.708 E0.25685
G1 X128.065 Y122.725 E0.27759
G1 X101.872 Y122.724 E1.06592
G1 X100.871 Y122.688 E1.09607
G1 X100.748 Y122.679 E1.09978
G1 X99.831 Y122.577 E1.12755
G1 X99.656 Y122.552 E1.13287
G1 X98.767 Y122.388 E1.16007
G1 X98.644 Y122.36 E1.16387
G1 X97.75 Y122.126 E1.19168
G1 X97.587 Y122.077 E1.19681
G1 X96.745 Y121.791 E1.22357
G1 X96.579 Y121.727 E1.22893
G1 X95.776 Y121.386 E1.25518
G1 X95.587 Y121.298 E1.26146
G1 X94.793 Y120.89 E1.28832
G1 X94.676 Y120.823 E1.29238
G1 X93.897 Y120.349 E1.31983
G1 X93.746 Y120.249 E1.32528
G1 X93.032 Y119.738 E1.3517
G1 X92.884 Y119.625 E1.35731
G1 X92.193 Y119.049 E1.38438
G1 X92.08 Y118.948 E1.38894
G1 X91.431 Y118.323 E1.41606
G1 X91.311 Y118.198 E1.42128
G1 X90.708 Y117.527 E1.44843
G1 X90.611 Y117.409 E1.45303
G1 X90.053 Y116.687 E1.48049
G1 X89.949 Y116.54 E1.48591
G1 X89.456 Y115.797 E1.51274
G1 X89.383 Y115.676 E1.517
G1 X88.931 Y114.871 E1.54478
G1 X88.859 Y114.732 E1.5495
G1 X88.462 Y113.886 E1.57762
G1 X88.416 Y113.774 E1.58127
G1 X88.087 Y112.915 E1.60895
G1 X88.03 Y112.75 E1.6142
G1 X87.78 Y111.915 E1.64044
G1 X87.733 Y111.742 E1.64583
G1 X87.532 Y110.841 E1.67362
G1 X87.51 Y110.717 E1.67741
G1 X87.375 Y109.803 E1.70521
G1 X87.358 Y109.643 E1.71006
G1 X87.292 Y108.751 E1.73698
G1 X87.275 Y108.069 E1.75751
G1 X87.275 Y81.889 E2.54545
G1 X87.311 Y80.883 E2.57574
G1 X87.321 Y80.748 E2.57982
G1 X87.423 Y79.831 E2.60759
G1 X87.448 Y79.656 E2.61291
G1 X87.61 Y78.778 E2.63978
G1 X87.64 Y78.644 E2.64391
G1 X87.871 Y77.759 E2.67144
G1 X87.923 Y77.587 E2.67685
G1 X88.209 Y76.745 E2.70361
G1 X88.273 Y76.579 E2.70896
G1 X88.614 Y75.776 E2.73522
G1 X88.695 Y75.601 E2.74102
G1 X89.11 Y74.793 E2.76836
G1 X89.177 Y74.676 E2.77242
G1 X89.651 Y73.897 E2.79987
G1 X89.751 Y73.746 E2.80532
G1 X90.262 Y73.032 E2.83174
G1 X90.375 Y72.884 E2.83735
G1 X90.951 Y72.193 E2.86442
G1 X91.052 Y72.08 E2.86898
G1 X91.677 Y71.431 E2.8961
G1 X91.802 Y71.311 E2.90132
G1 X92.473 Y70.708 E2.92847
G1 X92.589 Y70.612 E2.933
G1 X93.301 Y70.062 E2.96008
G1 X93.46 Y69.949 E2.96595
G1 X94.198 Y69.459 E2.99261
G1 X94.324 Y69.383 E2.99704
G1 X95.118 Y68.937 E3.02445
G1 X95.268 Y68.859 E3.02953
G1 X96.083 Y68.476 E3.05664
G1 X96.226 Y68.416 E3.0613
G1 X97.085 Y68.087 E3.08899
G1 X97.235 Y68.035 E3.09377
G1 X98.085 Y67.78 E3.12048
G1 X98.258 Y67.733 E3.12587
G1 X99.153 Y67.533 E3.15347
G1 X99.283 Y67.51 E3.15745
G1 X100.188 Y67.376 E3.18498
G1 X100.357 Y67.358 E3.1901
G1 X101.246 Y67.292 E3.21693
G1 X101.935 Y67.275 E3.23767
G1 X128.128 Y67.276 E4.026
G1 X129.129 Y67.312 E4.05614
G1 X129.252 Y67.321 E4.05985
G1 X130.169 Y67.423 E4.08762
G1 X130.344 Y67.448 E4.09294
G1 X131.233 Y67.612 E4.12015
G1 X131.356 Y67.64 E4.12395
G1 X132.25 Y67.874 E4.15176
G1 X132.413 Y67.923 E4.15688
G1 X133.255 Y68.209 E4.18365
G1 X133.421 Y68.273 E4.189
G1 X134.224 Y68.614 E4.21526
G1 X134.413 Y68.702 E4.22153
G1 X135.207 Y69.11 E4.2484
G1 X135.324 Y69.177 E4.25246
G1 X136.103 Y69.651 E4.2799
G1 X136.254 Y69.751 E4.28535
G1 X136.968 Y70.262 E4.31178
G1 X137.116 Y70.375 E4.31738
G1 X137.807 Y70.951 E4.34446
G1 X137.92 Y71.052 E4.34902
G1 X138.569 Y71.677 E4.37614
G1 X138.689 Y71.802 E4.38135
G1 X139.292 Y72.473 E4.4085
G1 X139.388 Y72.589 E4.41304
G1 X139.947 Y73.313 E4.44057
G1 X140.041 Y73.444 E4.44542
G1 X140.541 Y74.198 E4.47265
G1 X140.617 Y74.324 E4.47708
G1 X141.063 Y75.118 E4.50448
G1 X141.141 Y75.268 E4.50957
G1 X141.524 Y76.083 E4.53668
G1 X141.584 Y76.226 E4.54134
G1 X141.913 Y77.085 E4.56903
G1 X141.965 Y77.235 E4.57381
G1 X142.22 Y78.085 E4.60051
G1 X142.267 Y78.258 E4.60591
G1 X142.465 Y79.144 E4.63323
G1 X142.49 Y79.283 E4.63748
G1 X142.623 Y80.182 E4.66484
G1 X142.641 Y80.344 E4.66974
G1 X142.708 Y81.246 E4.69696
G1 X142.725 Y81.931 E4.71759
G1 X142.725 Y108.111 E5.50552
G1 X142.689 Y109.117 E5.53582
G1 X142.679 Y109.252 E5.53989
G1 X142.577 Y110.169 E5.56766
G1 X142.552 Y110.344 E5.57298
G1 X142.39 Y111.222 E5.59985
G1 X142.36 Y111.356 E5.60399
G1 X142.129 Y112.241 E5.63152
G1 X142.077 Y112.413 E5.63692
G1 X141.801 Y113.225 E5.66274
G1 X141.721 Y113.434 E5.66947
G1 X141.386 Y114.224 E5.6953
G1 X141.305 Y114.399 E5.7011
G1 X140.89 Y115.207 E5.72844
G1 X140.823 Y115.324 E5.7325
G1 X140.349 Y116.103 E5.75994
G1 X140.249 Y116.254 E5.76539
G1 X139.738 Y116.968 E5.79182
G1 X139.625 Y117.116 E5.79742
G1 X139.049 Y117.807 E5.8245
G1 X138.948 Y117.92 E5.82906
G1 X138.323 Y118.569 E5.85618
G1 X138.198 Y118.689 E5.86139
G1 X137.528 Y119.291 E5.8885
G1 X137.411 Y119.388 E5.89307
G1 X136.699 Y119.938 E5.92015
M204 S5000
M205 X50 Y50
G0 F9000 X136 Y120.41
M204 S4000
M205 X25 Y25
G1 F1200 X136 Y69.589 E7.44971
M204 S5000
M205 X50 Y50
G0 F9000 X134.4 Y68.696
M204 S4000
M205 X25 Y25
G1 F1200 X134.4 Y121.297 E9.03283
M204 S5000
M205 X50 Y50
G0 F9000 X132.8 Y121.953
M204 S4000
M205 X25 Y25
G1 F1200 X132.8 Y68.055 E10.655
M204 S5000
M205 X50 Y50
G0 F9000 X131.2 Y67.606
M204 S4000
M205 X25 Y25
G1 F1200 X131.2 Y122.389 E12.30379
M204 S5000
M205 X50 Y50
G0 F9000 X129.6 Y122.646
M204 S4000
M205 X25 Y25
G1 F1200 X129.6 Y67.36 E13.96773
M204 S5000
M205 X50 Y50
G0 F9000 X128 Y67.276
M204 S4000
M205 X25 Y25
G1 F1200 X128 Y122.724 E15.63654
M204 S5000
M205 X50 Y50
G0 F9000 X126.4 Y122.724
M204 S4000
M205 X25 Y25
G1 F1200 X126.4 Y67.276 E17.30535
M204 S5000
M205 X50 Y50
G0 F9000 X124.8 Y67.276
M204 S4000
M205 X25 Y25
G1 F1200 X124.8 Y122.724 E18.97417
M204 S5000
M205 X50 Y50
G0 F9000 X123.2 Y122.724
M204 S4000
M205 X25 Y25
G1 F1200 X123.2 Y67.276 E20.64298
M204 S5000
M205 X50 Y50
G0 F9000 X121.6 Y67.276
M204 S4000
M205 X25 Y25
G1 F1200 X121.6 Y122.724 E22.31179
M204 S5000
M205 X50 Y50
G0 F9000 X120 Y122.724
M204 S4000
M205 X25 Y25
G1 F1200 X120 Y67.276 E23.9806
M204 S5000
M205 X50 Y50
G0 F9000 X118.4 Y67.276
M204 S4000
M205 X25 Y25
G1 F1200 X118.4 Y122.724 E25.64942
M204 S5000
M205 X50 Y50
G0 F9000 X116.8 Y122.724
M204 S4000
M205 X25 Y25
G1 F1200 X116.8 Y67.276 E27.31823
M204 S5000
M205 X50 Y50
G0 F9000 X115.2 Y67.276
M204 S4000
M205 X25 Y25
G1 F1200 X115.2 Y122.724 E28.98704
M204 S5000
M205 X50 Y50
G0 F9000 X113.6 Y122.724
M204 S4000
M205 X25 Y25
G1 F1200 X113.6 Y67.276 E30.65585
M204 S5000
M205 X50 Y50
G0 F9000 X112 Y67.276
M204 S4000
M205 X25 Y25
G1 F1200 X112 Y122.724 E32.32467
M204 S5000
M205 X50 Y50
G0 F9000 X110.4 Y122.724
M204 S4000
M205 X25 Y25
G1 F1200 X110.4 Y67.276 E33.99348
M204 S5000
M205 X50 Y50
G0 F9000 X108.8 Y67.276
M204 S4000
M205 X25 Y25
G1 F1200 X108.8 Y122.724 E35.66229
M204 S5000
M205 X50 Y50
G0 F9000 X107.2 Y122.724
M204 S4000
M205 X25 Y25
G1 F1200 X107.2 Y67.276 E37.3311
M204 S5000
M205 X50 Y50
G0 F9000 X105.6 Y67.276
M204 S4000
M205 X25 Y25
G1 F1200 X105.6 Y122.724 E38.99992
M204 S5000
M205 X50 Y50
G0 F9000 X104 Y122.724
M204 S4000
M205 X25 Y25
G1 F1200 X104 Y67.276 E40.66873
M204 S5000
M205 X50 Y50
G0 F9000 X102.4 Y67.276
M204 S4000
M205 X25 Y25
G1 F1200 X102.4 Y122.724 E42.33754
M204 S5000
M205 X50 Y50
G0 F9000 X100.8 Y122.682
M204 S4000
M205 X25 Y25
G1 F1200 X100.8 Y67.325 E44.00361
M204 S5000
M205 X50 Y50
G0 F9000 X99.2 Y67.524
M204 S4000
M205 X25 Y25
G1 F1200 X99.2 Y122.467 E45.65723
M204 S5000
M205 X50 Y50
G0 F9000 X97.6 Y122.08
M204 S4000
M205 X25 Y25
G1 F1200 X97.6 Y67.925 E47.28712
M204 S5000
M205 X50 Y50
G0 F9000 X96 Y68.515
M204 S4000
M205 X25 Y25
G1 F1200 X96 Y121.481 E48.88124
M204 S5000
M205 X50 Y50
G0 F9000 X94.4 Y120.655
M204 S4000
M205 X25 Y25
G1 F1200 X94.4 Y69.34 E50.42566
M204 S5000
M205 X50 Y50
G0 F9000 X92.8 Y70.449
M204 S4000
M205 X25 Y25
G1 F1200 X92.8 Y119.554 E51.90357
M204 S5000
M205 X50 Y50
G0 F9000 X91.2 Y118.074
M204 S4000
M205 X25 Y25
G1 F1200 X91.2 Y71.926 E53.29248
M204 S5000
M205 X50 Y50
G0 F9000 X89.6 Y73.98
M204 S4000
M205 X25 Y25
G1 F1200 X89.6 Y116.014 E54.55757
M204 S5000
M205 X50 Y50
G0 F9000 X88 Y112.649
M204 S4000
M205 X25 Y25
G1 F1200 X88 Y77.36 E55.61966
M204 S5000
M205 X50 Y50
G0 F9000 X137.6 Y70.779
M204 S4000
M205 X25 Y25
G1 F1200 X137.6 Y119.227 E57.07779
M204 S5000
M205 X50 Y50
G0 F9000 X139.2 Y117.626
M204 S4000
M205 X25 Y25
G1 F1200 X139.2 Y72.371 E58.43983
M204 S5000
M205 X50 Y50
G0 F9000 X140.8 Y74.65
M204 S4000
M205 X25 Y25
G1 F1200 X140.8 Y115.362 E59.66513
M204 S5000
M205 X50 Y50
G0 F9000 X142.4 Y111.168
M204 S4000
M205 X25 Y25
G1 F1200 X142.4 Y78.854 E60.63768
M204 S5000
M205 X50 Y50
G0 F600 X142.4 Y78.854 Z0.39
G0 F9000 X140.66 Y74.298
;TIME_ELAPSED:104.705060
;LAYER:-6
M204 S4000
M205 X25 Y25
;TYPE:SUPPORT
G1 F1200 X140.589 Y74.183 E60.63991
G1 X140.08 Y73.416 E60.65506
G1 X139.978 Y73.272 E60.65796
G1 X139.427 Y72.559 E60.6728
G1 X139.319 Y72.428 E60.67559
G1 X138.717 Y71.758 E60.69041
G1 X138.614 Y71.652 E60.69285
G1 X137.943 Y71.005 E60.70819
G1 X137.849 Y70.922 E60.71025
G1 X137.134 Y70.326 E60.72557
G1 X137.006 Y70.228 E60.72823
G1 X136.282 Y69.71 E60.74288
G1 X136.128 Y69.608 E60.74592
G1 X135.359 Y69.14 E60.76074
G1 X135.282 Y69.097 E60.76219
G1 X140.886 Y74.701 E60.89263
G1 X141.106 Y75.094 E60.90005
G1 X141.178 Y75.231 E60.90259
G1 X141.574 Y76.076 E60.91795
G1 X141.63 Y76.207 E60.9203
G1 X141.947 Y77.035 E60.93489
G1 X132.973 Y68.061 E61.14378
G1 X132.44 Y67.878 E61.15305
G1 X132.265 Y67.827 E61.15605
G1 X131.367 Y67.591 E61.17133
G1 X131.232 Y67.561 E61.17361
G1 X131.194 Y67.554 E61.17425
G1 X142.436 Y78.797 E61.43594
G1 X142.515 Y79.148 E61.44186
G1 X142.539 Y79.275 E61.44399
G1 X142.672 Y80.176 E61.45898
G1 X142.688 Y80.321 E61.46138
G1 X129.685 Y67.318 E61.76405
G1 X129.256 Y67.27 E61.77115
G1 X129.132 Y67.262 E61.7732
G1 X128.327 Y67.233 E61.78646
G1 X142.77 Y81.676 E62.12264
G1 X142.774 Y81.931 E62.12684
G1 X142.774 Y82.953 E62.14366
G1 X127.047 Y67.226 E62.50974
G1 X125.774 Y67.226 E62.53069
G1 X142.774 Y84.226 E62.9264
G1 X142.774 Y85.499 E62.94735
G1 X124.501 Y67.226 E63.37269
G1 X123.228 Y67.226 E63.39364
G1 X142.774 Y86.771 E63.8486
G1 X142.774 Y88.044 E63.86955
G1 X121.956 Y67.226 E64.35413
G1 X120.683 Y67.226 E64.37508
G1 X142.774 Y89.317 E64.88929
G1 X142.774 Y90.59 E64.91024
G1 X119.41 Y67.226 E65.45409
G1 X118.137 Y67.226 E65.47504
G1 X142.774 Y91.863 E66.04851
G1 X142.774 Y93.135 E66.06945
G1 X116.864 Y67.226 E66.67254
G1 X115.592 Y67.226 E66.69347
G1 X142.774 Y94.408 E67.32619
G1 X142.774 Y95.681 E67.34714
G1 X114.319 Y67.226 E68.00948
G1 X113.046 Y67.226 E68.03044
G1 X142.774 Y96.954 E68.72241
G1 X142.774 Y98.227 E68.74336
G1 X111.773 Y67.226 E69.46497
G1 X110.5 Y67.226 E69.48592
G1 X142.774 Y99.499 E70.23715
G1 X142.774 Y100.772 E70.2581
G1 X109.228 Y67.226 E71.03895
G1 X107.955 Y67.226 E71.0599
G1 X142.774 Y102.045 E71.87038
G1 X142.774 Y103.318 E71.89133
G1 X106.682 Y67.226 E72.73144
G1 X105.409 Y67.226 E72.75239
G1 X142.774 Y104.59 E73.62212
G1 X142.774 Y105.863 E73.64307
G1 X104.137 Y67.226 E74.54242
G1 X102.864 Y67.226 E74.56337
G1 X142.774 Y107.136 E75.49235
G1 X142.774 Y108.111 E75.5084
G1 X142.764 Y108.398 E75.51313
G1 X101.596 Y67.231 E76.47138
G1 X101.425 Y67.233 E76.47419
G1 X101.242 Y67.241 E76.47721
G1 X100.397 Y67.304 E76.49116
G1 X142.691 Y109.598 E77.47563
G1 X142.626 Y110.174 E77.48517
G1 X142.603 Y110.336 E77.48786
G1 X142.534 Y110.714 E77.49419
G1 X99.279 Y67.459 E78.50103
G1 X99.146 Y67.484 E78.50325
G1 X98.235 Y67.688 E78.51862
G1 X142.305 Y111.758 E79.54443
G1 X142.172 Y112.267 E79.55309
G1 X142.124 Y112.428 E79.55586
G1 X142.017 Y112.743 E79.56133
G1 X97.251 Y67.977 E80.60335
G1 X97.22 Y67.986 E80.60388
G1 X97.066 Y68.039 E80.60656
G1 X96.325 Y68.324 E80.61962
G1 X141.673 Y113.672 E81.67518
G1 X141.431 Y114.244 E81.68541
G1 X141.349 Y114.422 E81.68863
G1 X141.282 Y114.553 E81.69105
G1 X95.448 Y68.719 E82.75793
G1 X95.231 Y68.82 E82.76187
G1 X95.093 Y68.893 E82.76444
G1 X94.616 Y69.16 E82.77343
G1 X140.843 Y115.387 E83.84945
G1 X140.391 Y116.128 E83.86374
G1 X140.359 Y116.176 E83.86469
G1 X93.828 Y69.645 E84.94779
G1 X93.42 Y69.914 E84.95583
G1 X93.282 Y70.012 E84.95861
G1 X93.08 Y70.169 E84.96283
G1 X139.831 Y116.921 E86.05105
G1 X139.77 Y117.007 E86.05279
G1 X139.673 Y117.135 E86.05543
G1 X139.263 Y117.626 E86.06596
G1 X92.37 Y70.732 E87.1575
G1 X91.758 Y71.282 E87.17104
G1 X91.701 Y71.337 E87.17234
G1 X138.657 Y118.293 E88.26533
G1 X138.347 Y118.615 E88.27269
G1 X138.24 Y118.718 E88.27513
G1 X138.013 Y118.921 E88.28015
G1 X91.075 Y71.983 E89.37272
G1 X91.005 Y72.056 E89.37438
G1 X90.913 Y72.159 E89.37665
G1 X90.487 Y72.668 E89.38758
G1 X137.33 Y119.511 E90.47794
G1 X136.719 Y119.984 E90.49065
G1 X136.608 Y120.062 E90.49289
G1 X89.94 Y73.394 E91.57917
G1 X89.71 Y73.717 E91.5857
G1 X89.607 Y73.871 E91.58875
G1 X89.432 Y74.158 E91.59428
G1 X135.845 Y120.571 E92.67463
G1 X135.815 Y120.591 E92.67522
G1 X135.7 Y120.661 E92.67744
G1 X135.034 Y121.034 E92.69
G1 X88.964 Y74.963 E93.76238
G1 X88.649 Y75.577 E93.77374
G1 X88.567 Y75.754 E93.77695
G1 X88.541 Y75.813 E93.77801
G1 X134.181 Y121.454 E94.84038
G1 X133.925 Y121.574 E94.84503
G1 X133.791 Y121.63 E94.84742
G1 X133.281 Y121.826 E94.85642
G1 X88.167 Y76.712 E95.90653
G1 X88.157 Y76.74 E95.90702
G1 X87.874 Y77.57 E95.92145
G1 X87.845 Y77.663 E95.92306
G1 X132.329 Y122.147 E96.9585
G1 X131.918 Y122.27 E96.96557
G1 X131.767 Y122.311 E96.96814
G1 X131.32 Y122.41 E96.97568
G1 X87.582 Y78.672 E97.99376
G1 X87.561 Y78.766 E97.99535
G1 X87.395 Y79.662 E98.01034
G1 X87.383 Y79.746 E98.01174
G1 X130.246 Y122.61 E99.00947
G1 X129.821 Y122.673 E99.01654
G1 X129.65 Y122.692 E99.01937
G1 X129.096 Y122.732 E99.02851
G1 X87.259 Y80.895 E100.00235
G1 X87.223 Y81.887 E100.01869
G1 X87.223 Y82.132 E100.02272
G1 X127.865 Y122.774 E100.96874
G1 X126.592 Y122.774 E100.98969
G1 X87.223 Y83.405 E101.90608
G1 X87.223 Y84.678 E101.92703
G1 X125.319 Y122.774 E102.81379
G1 X124.047 Y122.774 E102.83472
G1 X87.223 Y85.95 E103.69187
G1 X87.223 Y87.223 E103.71282
G1 X122.774 Y122.774 E104.54034
G1 X121.501 Y122.774 E104.56129
G1 X87.223 Y88.496 E105.35918
G1 X87.223 Y89.769 E105.38013
G1 X120.228 Y122.774 E106.14838
G1 X118.955 Y122.774 E106.16934
G1 X87.223 Y91.042 E106.90796
G1 X87.223 Y92.314 E106.92889
G1 X117.683 Y122.774 E107.63791
G1 X116.41 Y122.774 E107.65886
G1 X87.223 Y93.587 E108.33824
G1 X87.223 Y94.86 E108.3592
G1 X115.137 Y122.774 E109.00895
G1 X113.863 Y122.773 E109.02992
G1 X87.224 Y96.133 E109.65
G1 X87.224 Y97.406 E109.67095
G1 X112.591 Y122.773 E110.26142
G1 X111.318 Y122.773 E110.28237
G1 X87.224 Y98.679 E110.8432
G1 X87.224 Y99.952 E110.86415
G1 X110.045 Y122.773 E111.39536
G1 X108.772 Y122.773 E111.41631
G1 X87.224 Y101.225 E111.91788
G1 X87.224 Y102.497 E111.93882
G1 X107.5 Y122.773 E112.41078
G1 X106.227 Y122.773 E112.43173
G1 X87.224 Y103.77 E112.87406
G1 X87.224 Y105.043 E112.89501
G1 X104.954 Y122.773 E113.30771
G1 X103.681 Y122.773 E113.32866
G1 X87.224 Y106.316 E113.71173
G1 X87.224 Y107.589 E113.73268
G1 X102.408 Y122.773 E114.08612
