;START_OF_HEADER
;HEADER_VERSION:0.1
;FLAVOR:Griffin
;GENERATOR.NAME:Cura_SteamEngine
;GENERATOR.VERSION:4.10.0
;GENERATOR.BUILD_DATE:2021-06-29
;TARGET_MACHINE.NAME:Ultimaker S3
;EXTRUDER_TRAIN.0.INITIAL_TEMPERATURE:202
;EXTRUDER_TRAIN.0.MATERIAL.VOLUME_USED:30646
;EXTRUDER_TRAIN.0.MATERIAL.GUID:506c9f0d-e3aa-4bd4-b2d2-23e2425b1aa9
;EXTRUDER_TRAIN.0.NOZZLE.DIAMETER:0.4
;EXTRUDER_TRAIN.0.NOZZLE.NAME:AA 0.4
;BUILD_PLATE.TYPE:glass
;BUILD_PLATE.INITIAL_TEMPERATURE:65
;PRINT.TIME:22648
;PRINT.GROUPS:1
;PRINT.SIZE.MIN.X:65.174
;PRINT.SIZE.MIN.Y:31.32
;PRINT.SIZE.MIN.Z:0.24
;PRINT.SIZE.MAX.X:164.825
;PRINT.SIZE.MAX.Y:130.97
;PRINT.SIZE.MAX.Z:15.715
;END_OF_HEADER
;Generated with Cura_SteamEngine 4.10.0
T0
M82 ;absolute extrusion mode

G92 E0
M109 S202
G280 S1
G0 Z20.001
G1 F1500 E-6.5
;LAYER_COUNT:149
;LAYER:-7
M107
M204 S5000
M205 X50 Y50
G0 F9000 X155.892 Y129.447 Z0.24
M204 S4000
M205 X25 Y25
;TYPE:SUPPORT-INTERFACE
G1 F1500 E0
G1 F1200 X155.775 Y129.499 E0.00385
G1 X154.92 Y129.844 E0.0316
G1 X154.757 Y129.902 E0.03681
G1 X153.914 Y130.173 E0.06346
G1 X153.75 Y130.219 E0.06859
G1 X152.878 Y130.431 E0.0956
G1 X152.716 Y130.464 E0.10057
G1 X151.823 Y130.612 E0.12781
G1 X151.646 Y130.635 E0.13319
G1 X150.752 Y130.718 E0.16021
G1 X149.869 Y130.746 E0.1868
G1 X80.12 Y130.745 E2.28603
G1 X79.119 Y130.709 E2.31617
G1 X78.996 Y130.7 E2.31988
G1 X78.079 Y130.598 E2.34765
G1 X77.904 Y130.573 E2.35297
G1 X77.015 Y130.409 E2.38018
G1 X76.892 Y130.381 E2.38398
G1 X75.998 Y130.147 E2.41179
G1 X75.835 Y130.098 E2.41691
G1 X74.993 Y129.812 E2.44368
G1 X74.827 Y129.748 E2.44903
G1 X74.024 Y129.407 E2.47529
G1 X73.835 Y129.319 E2.48156
G1 X73.041 Y128.911 E2.50843
G1 X72.924 Y128.844 E2.51249
G1 X72.145 Y128.37 E2.53993
G1 X71.994 Y128.27 E2.54538
G1 X71.28 Y127.759 E2.57181
G1 X71.132 Y127.646 E2.57741
G1 X70.44 Y127.069 E2.60453
G1 X69.821 Y126.49 E2.63004
G1 X69.654 Y126.324 E2.63713
G1 X69.01 Y125.63 E2.66562
G1 X68.893 Y125.493 E2.67104
G1 X68.343 Y124.807 E2.69751
G1 X68.227 Y124.651 E2.70336
G1 X67.743 Y123.948 E2.72905
G1 X67.626 Y123.764 E2.73561
G1 X67.183 Y123.008 E2.76198
G1 X67.106 Y122.866 E2.76684
G1 X66.697 Y122.034 E2.79474
G1 X66.647 Y121.921 E2.79846
G1 X66.298 Y121.057 E2.82651
G1 X66.242 Y120.899 E2.83155
G1 X65.97 Y120.051 E2.85836
G1 X65.928 Y119.901 E2.86304
G1 X65.712 Y119.013 E2.89055
G1 X65.683 Y118.87 E2.89494
G1 X65.533 Y117.964 E2.92258
G1 X65.511 Y117.792 E2.9278
G1 X65.428 Y116.893 E2.95497
G1 X65.4 Y116.023 E2.98117
G1 X65.4 Y46.283 E5.08013
G1 X65.436 Y45.277 E5.11042
G1 X65.446 Y45.142 E5.1145
G1 X65.547 Y44.227 E5.1422
G1 X65.573 Y44.052 E5.14753
G1 X65.735 Y43.172 E5.17446
G1 X65.765 Y43.038 E5.17859
G1 X65.996 Y42.152 E5.20615
G1 X66.048 Y41.981 E5.21153
G1 X66.334 Y41.139 E5.23829
G1 X66.398 Y40.973 E5.24365
G1 X66.739 Y40.17 E5.2699
G1 X66.82 Y39.995 E5.27571
G1 X67.235 Y39.187 E5.30304
G1 X67.302 Y39.07 E5.3071
G1 X67.776 Y38.291 E5.33455
G1 X67.876 Y38.14 E5.34
G1 X68.392 Y37.419 E5.36668
G1 X68.5 Y37.278 E5.37203
G1 X69.077 Y36.586 E5.39914
G1 X69.656 Y35.967 E5.42465
G1 X69.818 Y35.804 E5.43157
G1 X70.514 Y35.158 E5.46015
G1 X70.653 Y35.039 E5.46566
G1 X71.344 Y34.485 E5.49231
G1 X71.483 Y34.381 E5.49754
G1 X72.198 Y33.889 E5.52366
G1 X72.382 Y33.772 E5.53022
G1 X73.138 Y33.329 E5.5566
G1 X73.28 Y33.252 E5.56146
G1 X74.112 Y32.843 E5.58936
G1 X74.225 Y32.793 E5.59308
G1 X75.075 Y32.45 E5.62067
G1 X75.248 Y32.388 E5.6262
G1 X76.086 Y32.119 E5.65268
G1 X76.25 Y32.073 E5.65781
G1 X77.122 Y31.861 E5.68482
G1 X77.284 Y31.828 E5.6898
G1 X78.177 Y31.68 E5.71704
G1 X78.354 Y31.657 E5.72241
G1 X79.248 Y31.574 E5.74943
G1 X80.131 Y31.546 E5.77602
G1 X149.88 Y31.547 E7.87525
G1 X150.881 Y31.583 E7.9054
G1 X151.004 Y31.592 E7.90911
G1 X151.921 Y31.694 E7.93688
G1 X152.096 Y31.719 E7.9422
G1 X152.985 Y31.883 E7.96941
G1 X153.108 Y31.911 E7.9732
G1 X154.002 Y32.145 E8.00102
G1 X154.165 Y32.194 E8.00614
G1 X155.007 Y32.48 E8.0329
G1 X155.173 Y32.544 E8.03826
G1 X155.976 Y32.885 E8.06451
G1 X156.165 Y32.973 E8.07079
G1 X156.959 Y33.381 E8.09765
G1 X157.076 Y33.448 E8.10171
G1 X157.855 Y33.922 E8.12916
G1 X158.006 Y34.022 E8.13461
G1 X158.72 Y34.533 E8.16103
G1 X158.868 Y34.646 E8.16664
G1 X159.56 Y35.223 E8.19376
G1 X160.179 Y35.802 E8.21926
G1 X160.305 Y35.926 E8.22459
G1 X160.988 Y36.66 E8.25476
G1 X161.107 Y36.799 E8.26027
G1 X161.661 Y37.49 E8.28692
G1 X161.765 Y37.629 E8.29215
G1 X162.257 Y38.344 E8.31827
G1 X162.374 Y38.528 E8.32483
G1 X162.814 Y39.277 E8.35098
G1 X162.887 Y39.411 E8.35557
G1 X163.292 Y40.234 E8.38318
G1 X163.353 Y40.371 E8.38769
G1 X163.695 Y41.216 E8.41513
G1 X163.754 Y41.382 E8.42043
G1 X164.025 Y42.224 E8.44705
G1 X164.072 Y42.39 E8.45224
G1 X164.283 Y43.259 E8.47916
G1 X164.317 Y43.422 E8.48417
G1 X164.465 Y44.314 E8.51138
G1 X164.489 Y44.5 E8.51703
G1 X164.57 Y45.384 E8.54374
G1 X164.6 Y46.269 E8.57039
G1 X164.6 Y116.009 E10.66935
G1 X164.564 Y117.015 E10.69965
G1 X164.554 Y117.15 E10.70372
G1 X164.452 Y118.067 E10.73149
G1 X164.427 Y118.242 E10.73681
G1 X164.265 Y119.12 E10.76368
G1 X164.235 Y119.254 E10.76782
G1 X164.004 Y120.139 E10.79534
G1 X163.952 Y120.311 E10.80075
G1 X163.666 Y121.153 E10.82752
G1 X163.602 Y121.319 E10.83287
G1 X163.261 Y122.122 E10.85913
G1 X163.18 Y122.297 E10.86493
G1 X162.776 Y123.083 E10.89153
G1 X162.698 Y123.222 E10.89633
G1 X162.224 Y124.001 E10.92377
G1 X162.124 Y124.152 E10.92922
G1 X161.613 Y124.866 E10.95565
G1 X161.5 Y125.014 E10.96125
G1 X160.923 Y125.706 E10.98837
G1 X160.344 Y126.325 E11.01388
G1 X160.182 Y126.488 E11.02079
G1 X159.497 Y127.124 E11.04893
G1 X159.349 Y127.251 E11.0548
G1 X158.656 Y127.807 E11.08154
G1 X158.517 Y127.911 E11.08676
G1 X157.802 Y128.403 E11.11288
G1 X157.618 Y128.52 E11.11945
G1 X156.862 Y128.963 E11.14582
G1 X156.72 Y129.04 E11.15068
G1 X155.892 Y129.447 E11.17845
M204 S5000
M205 X50 Y50
G0 F9000 X155.2 Y129.732
M204 S4000
M205 X25 Y25
G1 F1200 X155.2 Y32.556 E14.10314
M204 S5000
M205 X50 Y50
G0 F9000 X153.6 Y32.04
M204 S4000
M205 X25 Y25
G1 F1200 X153.6 Y130.256 E17.05914
M204 S5000
M205 X50 Y50
G0 F9000 X152 Y130.583
M204 S4000
M205 X25 Y25
G1 F1200 X152 Y31.706 E20.03503
M204 S5000
M205 X50 Y50
G0 F9000 X150.4 Y31.566
M204 S4000
M205 X25 Y25
G1 F1200 X150.4 Y130.73 E23.01956
M204 S5000
M205 X50 Y50
G0 F9000 X148.8 Y130.745
M204 S4000
M205 X25 Y25
G1 F1200 X148.8 Y31.547 E26.00511
M204 S5000
M205 X50 Y50
G0 F9000 X147.2 Y31.547
M204 S4000
M205 X25 Y25
G1 F1200 X147.2 Y130.745 E28.99066
M204 S5000
M205 X50 Y50
G0 F9000 X145.6 Y130.745
M204 S4000
M205 X25 Y25
G1 F1200 X145.6 Y31.547 E31.97621
M204 S5000
M205 X50 Y50
G0 F9000 X144 Y31.547
M204 S4000
M205 X25 Y25
G1 F1200 X144 Y130.745 E34.96176
M204 S5000
M205 X50 Y50
G0 F9000 X142.4 Y130.745
M204 S4000
M205 X25 Y25
G1 F1200 X142.4 Y31.547 E37.94731
M204 S5000
M205 X50 Y50
G0 F9000 X140.8 Y31.547
M204 S4000
M205 X25 Y25
G1 F1200 X140.8 Y130.745 E40.93287
M204 S5000
M205 X50 Y50
G0 F9000 X139.2 Y130.745
M204 S4000
M205 X25 Y25
G1 F1200 X139.2 Y31.547 E43.91842
M204 S5000
M205 X50 Y50
G0 F9000 X137.6 Y31.547
M204 S4000
M205 X25 Y25
G1 F1200 X137.6 Y130.745 E46.90397
M204 S5000
M205 X50 Y50
G0 F9000 X136 Y130.745
M204 S4000
M205 X25 Y25
G1 F1200 X136 Y31.547 E49.88952
M204 S5000
M205 X50 Y50
G0 F9000 X134.4 Y31.547
M204 S4000
M205 X25 Y25
G1 F1200 X134.4 Y130.745 E52.87507
M204 S5000
M205 X50 Y50
G0 F9000 X132.8 Y130.745
M204 S4000
M205 X25 Y25
G1 F1200 X132.8 Y31.547 E55.86062
M204 S5000
M205 X50 Y50
G0 F9000 X131.2 Y31.547
M204 S4000
M205 X25 Y25
G1 F1200 X131.2 Y130.745 E58.84617
M204 S5000
M205 X50 Y50
G0 F9000 X129.6 Y130.745
M204 S4000
M205 X25 Y25
G1 F1200 X129.6 Y31.547 E61.83173
M204 S5000
M205 X50 Y50
G0 F9000 X128 Y31.547
M204 S4000
M205 X25 Y25
G1 F1200 X128 Y130.745 E64.81728
M204 S5000
M205 X50 Y50
G0 F9000 X126.4 Y130.745
M204 S4000
M205 X25 Y25
G1 F1200 X126.4 Y31.547 E67.80283
M204 S5000
M205 X50 Y50
G0 F9000 X124.8 Y31.547
M204 S4000
M205 X25 Y25
G1 F1200 X124.8 Y130.745 E70.78838
M204 S5000
M205 X50 Y50
G0 F9000 X123.2 Y130.745
M204 S4000
M205 X25 Y25
G1 F1200 X123.2 Y31.547 E73.77393
M204 S5000
M205 X50 Y50
G0 F9000 X121.6 Y31.547
M204 S4000
M205 X25 Y25
G1 F1200 X121.6 Y130.745 E76.75948
M204 S5000
M205 X50 Y50
G0 F9000 X120 Y130.745
M204 S4000
M205 X25 Y25
G1 F1200 X120 Y31.547 E79.74503
M204 S5000
M205 X50 Y50
G0 F9000 X118.4 Y31.547
M204 S4000
M205 X25 Y25
G1 F1200 X118.4 Y130.745 E82.73058
M204 S5000
M205 X50 Y50
G0 F9000 X116.8 Y130.745
M204 S4000
M205 X25 Y25
G1 F1200 X116.8 Y31.547 E85.71614
M204 S5000
M205 X50 Y50
G0 F9000 X115.2 Y31.547
M204 S4000
M205 X25 Y25
G1 F1200 X115.2 Y130.745 E88.70169
M204 S5000
M205 X50 Y50
G0 F9000 X113.6 Y130.745
M204 S4000
M205 X25 Y25
G1 F1200 X113.6 Y31.547 E91.68724
M204 S5000
M205 X50 Y50
G0 F9000 X112 Y31.547
M204 S4000
M205 X25 Y25
G1 F1200 X112 Y130.745 E94.67279
M204 S5000
M205 X50 Y50
G0 F9000 X110.4 Y130.745
M204 S4000
M205 X25 Y25
G1 F1200 X110.4 Y31.547 E97.65834
M204 S5000
M205 X50 Y50
G0 F9000 X108.8 Y31.547
M204 S4000
M205 X25 Y25
G1 F1200 X108.8 Y130.745 E100.64389
M204 S5000
M205 X50 Y50
G0 F9000 X107.2 Y130.745
M204 S4000
M205 X25 Y25
G1 F1200 X107.2 Y31.547 E103.62944
M204 S5000
M205 X50 Y50
G0 F9000 X105.6 Y31.547
M204 S4000
M205 X25 Y25
G1 F1200 X105.6 Y130.745 E106.615
M204 S5000
M205 X50 Y50
G0 F9000 X104 Y130.745
M204 S4000
M205 X25 Y25
G1 F1200 X104 Y31.547 E109.60055
M204 S5000
M205 X50 Y50
G0 F9000 X102.4 Y31.547
M204 S4000
M205 X25 Y25
G1 F1200 X102.4 Y130.745 E112.5861
M204 S5000
M205 X50 Y50
G0 F9000 X100.8 Y130.745
M204 S4000
M205 X25 Y25
G1 F1200 X100.8 Y31.547 E115.57165
M204 S5000
M205 X50 Y50
G0 F9000 X99.2 Y31.547
M204 S4000
M205 X25 Y25
G1 F1200 X99.2 Y130.745 E118.5572
M204 S5000
M205 X50 Y50
G0 F9000 X97.6 Y130.745
M204 S4000
M205 X25 Y25
G1 F1200 X97.6 Y31.547 E121.54275
M204 S5000
M205 X50 Y50
G0 F9000 X96 Y31.547
M204 S4000
M205 X25 Y25
G1 F1200 X96 Y130.745 E124.5283
M204 S5000
M205 X50 Y50
G0 F9000 X94.4 Y130.745
M204 S4000
M205 X25 Y25
G1 F1200 X94.4 Y31.547 E127.51385
M204 S5000
M205 X50 Y50
G0 F9000 X92.8 Y31.547
M204 S4000
M205 X25 Y25
G1 F1200 X92.8 Y130.745 E130.49941
M204 S5000
M205 X50 Y50
G0 F9000 X91.2 Y130.745
M204 S4000
M205 X25 Y25
G1 F1200 X91.2 Y31.547 E133.48496
M204 S5000
M205 X50 Y50
G0 F9000 X89.6 Y31.547
M204 S4000
M205 X25 Y25
G1 F1200 X89.6 Y130.745 E136.47051
M204 S5000
M205 X50 Y50
G0 F9000 X88 Y130.745
M204 S4000
M205 X25 Y25
G1 F1200 X88 Y31.547 E139.45606
M204 S5000
M205 X50 Y50
G0 F9000 X86.4 Y31.547
M204 S4000
M205 X25 Y25
G1 F1200 X86.4 Y130.745 E142.44161
M204 S5000
M205 X50 Y50
G0 F9000 X84.8 Y130.745
M204 S4000
M205 X25 Y25
G1 F1200 X84.8 Y31.547 E145.42716
M204 S5000
M205 X50 Y50
G0 F9000 X83.2 Y31.547
M204 S4000
M205 X25 Y25
G1 F1200 X83.2 Y130.745 E148.41271
M204 S5000
M205 X50 Y50
G0 F9000 X81.6 Y130.745
M204 S4000
M205 X25 Y25
G1 F1200 X81.6 Y31.547 E151.39827
M204 S5000
M205 X50 Y50
G0 F9000 X80 Y31.55
M204 S4000
M205 X25 Y25
G1 F1200 X80 Y130.74 E154.38358
M204 S5000
M205 X50 Y50
G0 F9000 X78.4 Y130.633
M204 S4000
M205 X25 Y25
G1 F1200 X78.4 Y31.652 E157.3626
M204 S5000
M205 X50 Y50
G0 F9000 X76.8 Y31.939
M204 S4000
M205 X25 Y25
G1 F1200 X76.8 Y130.356 E160.32464
M204 S5000
M205 X50 Y50
G0 F9000 X75.2 Y129.882
M204 S4000
M205 X25 Y25
G1 F1200 X75.2 Y32.405 E163.2584
M204 S5000
M205 X50 Y50
G0 F9000 X73.6 Y33.094
M204 S4000
M205 X25 Y25
G1 F1200 X73.6 Y129.198 E166.15083
M204 S5000
M205 X50 Y50
G0 F9000 X72 Y128.273
M204 S4000
M205 X25 Y25
G1 F1200 X72 Y34.025 E168.9874
M204 S5000
M205 X50 Y50
G0 F9000 X70.4 Y35.263
M204 S4000
M205 X25 Y25
G1 F1200 X70.4 Y127.031 E171.74933
M204 S5000
M205 X50 Y50
G0 F9000 X68.8 Y125.377
M204 S4000
M205 X25 Y25
G1 F1200 X68.8 Y36.918 E174.41167
M204 S5000
M205 X50 Y50
G0 F9000 X67.2 Y39.255
M204 S4000
M205 X25 Y25
G1 F1200 X67.2 Y123.037 E176.93325
M204 S5000
M205 X50 Y50
G0 F9000 X65.6 Y118.368
M204 S4000
M205 X25 Y25
G1 F1200 X65.6 Y43.905 E179.17435
M204 S5000
M205 X50 Y50
G0 F9000 X156.8 Y33.3
M204 S4000
M205 X25 Y25
G1 F1200 X156.8 Y128.997 E182.05454
M204 S5000
M205 X50 Y50
G0 F9000 X158.4 Y127.992
M204 S4000
M205 X25 Y25
G1 F1200 X158.4 Y34.304 E184.87425
M204 S5000
M205 X50 Y50
G0 F9000 X160 Y35.635
M204 S4000
M205 X25 Y25
G1 F1200 X160 Y126.657 E187.61373
M204 S5000
M205 X50 Y50
G0 F9000 X161.6 Y124.884
M204 S4000
M205 X25 Y25
G1 F1200 X161.6 Y37.414 E190.24631
M204 S5000
M205 X50 Y50
G0 F9000 X163.2 Y40.048
M204 S4000
M205 X25 Y25
G1 F1200 X163.2 Y122.254 E192.72045
M204 S5000
M205 X50 Y50
G0 F600 X163.2 Y122.254 Z0.39
G0 F9000 X163.01 Y39.549
;TIME_ELAPSED:327.677740
;LAYER:-6
M204 S4000
M205 X25 Y25
;TYPE:SUPPORT
G1 F1200 X156.604 Y33.143 E192.86956
G1 X156.969 Y33.331 E192.87632
G1 X157.111 Y33.411 E192.87901
G1 X157.879 Y33.878 E192.8938
G1 X158.034 Y33.982 E192.89687
G1 X158.758 Y34.499 E192.91151
G1 X158.886 Y34.596 E192.91416
G1 X159.592 Y35.185 E192.92929
G1 X159.709 Y35.288 E192.93186
G1 X160.257 Y35.806 E192.94427
G1 X160.371 Y35.923 E192.94696
G1 X161.025 Y36.628 E192.96278
G1 X161.143 Y36.766 E192.96577
G1 X161.699 Y37.458 E192.98038
G1 X161.805 Y37.601 E192.98331
G1 X162.306 Y38.328 E192.99785
G1 X162.408 Y38.489 E193.00098
G1 X162.862 Y39.262 E193.01574
G1 X162.931 Y39.388 E193.0181
M204 S5000
M205 X50 Y50
G0 F9000 X156.604 Y33.143
M204 S4000
M205 X25 Y25
G1 F1200 X156.185 Y32.927 E193.02586
G1 X156.007 Y32.843 E193.0291
G1 X155.202 Y32.502 E193.04349
G1 X155.01 Y32.429 E193.04687
G1 X154.413 Y32.225 E193.05725
G1 X163.918 Y41.73 E193.2785
G1 X164.068 Y42.195 E193.28654
G1 X164.12 Y42.379 E193.28969
G1 X164.33 Y43.248 E193.30441
G1 X164.368 Y43.427 E193.30742
G1 X164.374 Y43.458 E193.30794
G1 X152.694 Y31.779 E193.5798
G1 X152.088 Y31.667 E193.58994
G1 X151.925 Y31.643 E193.59265
G1 X151.206 Y31.563 E193.60456
G1 X164.578 Y44.935 E193.91582
G1 X164.62 Y45.392 E193.92337
G1 X164.628 Y45.534 E193.92571
G1 X164.649 Y46.268 E193.9378
G1 X164.649 Y46.28 E193.938
G1 X149.866 Y31.496 E194.28211
G1 X148.593 Y31.496 E194.30306
G1 X164.649 Y47.552 E194.6768
G1 X164.649 Y48.825 E194.69775
G1 X147.32 Y31.496 E195.10112
G1 X146.047 Y31.496 E195.12207
G1 X164.649 Y50.098 E195.55506
G1 X164.649 Y51.371 E195.57602
G1 X144.775 Y31.496 E196.03863
G1 X143.502 Y31.496 E196.05959
G1 X164.649 Y52.644 E196.55183
G1 X164.649 Y53.916 E196.57277
G1 X142.229 Y31.496 E197.09464
G1 X140.956 Y31.496 E197.11559
G1 X164.649 Y55.189 E197.66709
G1 X164.649 Y56.462 E197.68804
G1 X139.683 Y31.496 E198.26917
G1 X138.411 Y31.496 E198.29011
G1 X164.649 Y57.735 E198.90086
G1 X164.649 Y59.008 E198.92181
G1 X137.138 Y31.496 E199.56219
G1 X135.865 Y31.496 E199.58315
G1 X164.649 Y60.28 E200.25315
G1 X164.649 Y61.553 E200.2741
G1 X134.592 Y31.496 E200.97373
G1 X133.32 Y31.496 E200.99467
G1 X164.649 Y62.826 E201.72392
G1 X164.649 Y64.099 E201.74487
G1 X132.047 Y31.496 E202.50376
G1 X130.774 Y31.496 E202.52471
G1 X164.649 Y65.372 E203.31323
G1 X164.649 Y66.644 E203.33416
G1 X129.501 Y31.496 E204.1523
G1 X128.228 Y31.496 E204.17325
G1 X164.649 Y67.917 E205.02102
G1 X164.649 Y69.19 E205.04197
G1 X126.956 Y31.496 E205.91936
G1 X125.683 Y31.496 E205.94031
G1 X164.649 Y70.463 E206.84733
G1 X164.649 Y71.735 E206.86827
G1 X124.41 Y31.496 E207.8049
G1 X123.137 Y31.496 E207.82586
G1 X164.649 Y73.008 E208.79213
G1 X164.649 Y74.281 E208.81308
G1 X121.864 Y31.496 E209.80898
G1 X120.592 Y31.496 E209.82992
G1 X164.649 Y75.554 E210.85544
G1 X164.649 Y76.827 E210.87639
G1 X119.319 Y31.496 E211.93154
G1 X118.046 Y31.496 E211.95249
G1 X164.649 Y78.099 E213.03727
G1 X164.649 Y79.372 E213.05822
G1 X116.773 Y31.496 E214.17262
G1 X115.5 Y31.496 E214.19358
G1 X164.649 Y80.645 E215.33761
G1 X164.649 Y81.918 E215.35856
G1 X114.228 Y31.496 E216.53222
G1 X112.955 Y31.496 E216.55317
G1 X164.649 Y83.191 E217.75646
G1 X164.649 Y84.463 E217.77739
G1 X111.682 Y31.496 E219.0103
G1 X110.409 Y31.496 E219.03125
G1 X164.649 Y85.736 E220.29379
G1 X164.649 Y87.009 E220.31474
G1 X109.136 Y31.496 E221.60691
G1 X107.864 Y31.496 E221.62785
G1 X164.649 Y88.282 E222.94964
G1 X164.649 Y89.555 E222.97059
G1 X106.591 Y31.496 E224.32201
G1 X105.318 Y31.496 E224.34296
G1 X164.649 Y90.827 E225.724
G1 X164.649 Y92.1 E225.74496
