;START_OF_HEADER
;HEADER_VERSION:0.1
;FLAVOR:Griffin
;GENERATOR.NAME:Cura_SteamEngine
;GENERATOR.VERSION:4.10.0
;GENERATOR.BUILD_DATE:2021-06-29
;TARGET_MACHINE.NAME:Ultimaker S3
;EXTRUDER_TRAIN.0.INITIAL_TEMPERATURE:200.5
;EXTRUDER_TRAIN.0.MATERIAL.VOLUME_USED:18181
;EXTRUDER_TRAIN.0.MATERIAL.GUID:506c9f0d-e3aa-4bd4-b2d2-23e2425b1aa9
;EXTRUDER_TRAIN.0.NOZZLE.DIAMETER:0.4
;EXTRUDER_TRAIN.0.NOZZLE.NAME:AA 0.4
;BUILD_PLATE.TYPE:glass
;BUILD_PLATE.INITIAL_TEMPERATURE:52
;PRINT.TIME:19430
;PRINT.GROUPS:1
;PRINT.SIZE.MIN.X:-3
;PRINT.SIZE.MIN.Y:6
;PRINT.SIZE.MIN.Z:0.2
;PRINT.SIZE.MAX.X:131.755
;PRINT.SIZE.MAX.Y:111.755
;PRINT.SIZE.MAX.Z:26.2
;END_OF_HEADER
;Generated with Cura_SteamEngine 4.10.0
T0
M82 ;absolute extrusion mode

G92 E0
M109 S200.5
G280 S1
G0 Z20.001
G1 F1500 E-6.5
;LAYER_COUNT:262
;LAYER:0
M107
M204 S625
M205 X10 Y10
G1 F600 Z2.2
G0 F1285.7 X98.903 Y79.812 Z2.2
M204 S500
M205 X5 Y5
;TYPE:SKIRT
G1 F600 Z0.2
G1 F1500 E0
G1 F600 X99.243 Y79.394 E0.00709
G1 X99.64 Y79.03 E0.01419
G1 X100.087 Y78.73 E0.02128
G1 X100.574 Y78.499 E0.02837
G1 X101.089 Y78.342 E0.03546
G1 X102.103 Y78.246 E0.04887
G1 X127.47 Y78.245 E0.38289
G1 X128.704 Y78.303 E0.39916
G1 X129.228 Y78.429 E0.40625
G1 X129.727 Y78.632 E0.41335
G1 X130.19 Y78.906 E0.42043
G1 X130.608 Y79.246 E0.42753
G1 X130.971 Y79.644 E0.43462
G1 X131.271 Y80.091 E0.44171
G1 X131.502 Y80.577 E0.44879
G1 X131.658 Y81.093 E0.45589
G1 X131.754 Y82.103 E0.46925
G1 X131.755 Y107.434 E0.80279
G1 X131.699 Y108.697 E0.81944
G1 X131.574 Y109.221 E0.82653
G1 X131.372 Y109.721 E0.83363
G1 X131.099 Y110.185 E0.84072
G1 X130.76 Y110.603 E0.84781
G1 X130.363 Y110.967 E0.8549
G1 X129.917 Y111.268 E0.86199
G1 X129.43 Y111.5 E0.86909
G1 X128.915 Y111.657 E0.87618
G1 X127.897 Y111.754 E0.88964
G1 X102.535 Y111.755 E1.22359
G1 X101.301 Y111.699 E1.23986
G1 X100.777 Y111.573 E1.24696
G1 X100.278 Y111.371 E1.25405
G1 X99.814 Y111.098 E1.26113
G1 X99.396 Y110.759 E1.26822
G1 X99.032 Y110.362 E1.27531
G1 X98.731 Y109.915 E1.28241
G1 X98.5 Y109.429 E1.28949
G1 X98.343 Y108.914 E1.29658
G1 X98.246 Y107.881 E1.31024
G1 X98.245 Y82.5 E1.64445
G1 X98.302 Y81.298 E1.66029
G1 X98.428 Y80.775 E1.66737
G1 X98.63 Y80.276 E1.67446
G1 X98.903 Y79.812 E1.68155
M204 S625
M205 X10 Y10
G0 F1285.7 X99.319 Y79.954
M204 S500
M205 X5 Y5
G1 F600 X99.655 Y79.574 E1.68823
G1 X100.046 Y79.253 E1.69489
G1 X100.482 Y78.996 E1.70156
G1 X100.954 Y78.812 E1.70823
G1 X101.449 Y78.704 E1.7149
G1 X102.205 Y78.665 E1.72487
G1 X127.464 Y78.665 E2.05746
G1 X128.666 Y78.722 E2.07331
G1 X129.157 Y78.848 E2.07998
G1 X129.621 Y79.05 E2.08664
G1 X130.048 Y79.322 E2.09331
G1 X130.427 Y79.657 E2.09997
G1 X130.749 Y80.049 E2.10665
G1 X131.005 Y80.486 E2.11332
G1 X131.189 Y80.957 E2.11998
G1 X131.297 Y81.452 E2.12665
G1 X131.335 Y82.205 E2.13658
G1 X131.335 Y107.429 E2.46871
G1 X131.28 Y108.66 E2.48494
G1 X131.155 Y109.151 E2.49161
G1 X130.954 Y109.616 E2.49828
G1 X130.683 Y110.043 E2.50494
G1 X130.348 Y110.423 E2.51161
G1 X129.957 Y110.745 E2.51828
G1 X129.521 Y111.002 E2.52494
G1 X129.05 Y111.187 E2.5316
G1 X128.555 Y111.296 E2.53828
G1 X127.795 Y111.335 E2.5483
G1 X102.541 Y111.335 E2.88083
G1 X101.338 Y111.279 E2.89669
G1 X100.848 Y111.154 E2.90334
G1 X100.383 Y110.953 E2.91001
G1 X99.955 Y110.682 E2.91668
G1 X99.576 Y110.347 E2.92335
G1 X99.254 Y109.956 E2.93001
G1 X98.997 Y109.52 E2.93668
G1 X98.812 Y109.048 E2.94335
G1 X98.704 Y108.554 E2.95001
G1 X98.665 Y107.783 E2.96018
G1 X98.665 Y82.506 E3.29301
G1 X98.721 Y81.336 E3.30843
G1 X98.847 Y80.846 E3.3151
G1 X99.048 Y80.381 E3.32177
G1 X99.319 Y79.954 E3.32842
M204 S625
M205 X10 Y10
G1 F1500 E-3.17158
;MESH:Part1.STL
G0 F1285.7 X102.489 Y82.489
G0 X127.165 Y107.165
M204 S500
M205 X5 Y5
;TYPE:WALL-INNER
G1 F1500 E3.32842
G1 F600 X102.835 Y107.165 E3.60302
G1 X102.835 Y82.835 E3.87762
G1 X127.165 Y82.835 E4.15221
G1 X127.165 Y107.165 E4.42681
M204 S625
M205 X10 Y10
G0 F1285.7 X127.525 Y107.525
M204 S500
M205 X5 Y5
G1 F600 X102.475 Y107.525 E4.70953
G1 X102.475 Y82.475 E4.99226
G1 X127.525 Y82.475 E5.27498
G1 X127.525 Y107.525 E5.5577
M204 S625
M205 X10 Y10
G0 F1285.7 X127.915 Y107.915
M204 S500
M205 X5 Y5
;TYPE:WALL-OUTER
G1 F600 X102.085 Y107.915 E5.89782
G1 X102.085 Y82.085 E6.23793
G1 X127.915 Y82.085 E6.57804
G1 X127.915 Y107.915 E6.91816
M204 S625
M205 X10 Y10
G0 F1285.7 X127.715 Y107.915
G0 X127.453 Y107.453
G0 X126.785 Y106.785
M204 S500
M205 X5 Y5
;TYPE:SKIN
G1 F600 X103.215 Y106.785 E7.22851
G1 X103.215 Y83.215 E7.53887
G1 X126.785 Y83.215 E7.84922
G1 X126.785 Y106.785 E8.15958
M204 S625
M205 X10 Y10
G0 F1285.7 X126.607 Y83.841
M204 S500
M205 X5 Y5
G1 F600 X126.157 Y83.391 E8.16796
M204 S625
M205 X10 Y10
G0 F1285.7 X125.563 Y83.391
M204 S500
M205 X5 Y5
G1 F600 X126.607 Y84.435 E8.1874
M204 S625
M205 X10 Y10
G0 F1285.7 X126.607 Y85.029
M204 S500
M205 X5 Y5
G1 F600 X124.969 Y83.391 E8.2179
M204 S625
M205 X10 Y10
G0 F1285.7 X124.375 Y83.391
M204 S500
M205 X5 Y5
G1 F600 X126.607 Y85.623 E8.25946
M204 S625
M205 X10 Y10
G0 F1285.7 X126.607 Y86.217
M204 S500
M205 X5 Y5
G1 F600 X123.781 Y83.391 E8.31209
M204 S625
M205 X10 Y10
G0 F1285.7 X123.187 Y83.391
M204 S500
M205 X5 Y5
G1 F600 X126.607 Y86.811 E8.37577
M204 S625
M205 X10 Y10
G0 F1285.7 X126.607 Y87.405
M204 S500
M205 X5 Y5
G1 F600 X122.593 Y83.391 E8.45052
M204 S625
M205 X10 Y10
G0 F1285.7 X121.999 Y83.391
M204 S500
M205 X5 Y5
G1 F600 X126.607 Y87.999 E8.53633
M204 S625
M205 X10 Y10
G0 F1285.7 X126.607 Y88.593
M204 S500
M205 X5 Y5
G1 F600 X121.405 Y83.391 E8.6332
M204 S625
M205 X10 Y10
G0 F1285.7 X120.812 Y83.391
M204 S500
M205 X5 Y5
G1 F600 X126.607 Y89.187 E8.74112
M204 S625
M205 X10 Y10
G0 F1285.7 X126.607 Y89.781
M204 S500
M205 X5 Y5
G1 F600 X120.218 Y83.391 E8.8601
M204 S625
M205 X10 Y10
G0 F1285.7 X119.624 Y83.391
M204 S500
M205 X5 Y5
G1 F600 X126.607 Y90.375 E8.99014
M204 S625
M205 X10 Y10
G0 F1285.7 X126.607 Y90.969
M204 S500
M205 X5 Y5
G1 F600 X119.03 Y83.391 E9.13125
M204 S625
M205 X10 Y10
G0 F1285.7 X118.436 Y83.391
M204 S500
M205 X5 Y5
G1 F600 X126.607 Y91.563 E9.28341
M204 S625
M205 X10 Y10
G0 F1285.7 X126.607 Y92.157
M204 S500
M205 X5 Y5
G1 F600 X117.842 Y83.391 E9.44664
M204 S625
M205 X10 Y10
G0 F1285.7 X117.248 Y83.391
M204 S500
M205 X5 Y5
G1 F600 X126.607 Y92.751 E9.62093
M204 S625
M205 X10 Y10
G0 F1285.7 X126.607 Y93.345
M204 S500
M205 X5 Y5
G1 F600 X116.654 Y83.391 E9.80628
M204 S625
M205 X10 Y10
G0 F1285.7 X116.06 Y83.391
M204 S500
M205 X5 Y5
G1 F600 X126.607 Y93.939 E10.00269
M204 S625
M205 X10 Y10
G0 F1285.7 X126.607 Y94.533
M204 S500
M205 X5 Y5
G1 F600 X115.466 Y83.391 E10.21016
M204 S625
M205 X10 Y10
G0 F1285.7 X114.872 Y83.391
M204 S500
M205 X5 Y5
G1 F600 X126.607 Y95.127 E10.42869
M204 S625
M205 X10 Y10
G0 F1285.7 X126.607 Y95.721
M204 S500
M205 X5 Y5
G1 F600 X114.278 Y83.391 E10.65829
M204 S625
M205 X10 Y10
G0 F1285.7 X113.684 Y83.391
M204 S500
M205 X5 Y5
G1 F600 X126.607 Y96.315 E10.89894
M204 S625
M205 X10 Y10
G0 F1285.7 X126.607 Y96.908
M204 S500
M205 X5 Y5
G1 F600 X113.09 Y83.391 E11.15065
M204 S625
M205 X10 Y10
G0 F1285.7 X112.496 Y83.391
M204 S500
M205 X5 Y5
G1 F600 X126.607 Y97.502 E11.41342
M204 S625
M205 X10 Y10
G0 F1285.7 X126.607 Y98.096
M204 S500
M205 X5 Y5
G1 F600 X111.902 Y83.391 E11.68724
M204 S625
M205 X10 Y10
G0 F1285.7 X111.308 Y83.391
M204 S500
M205 X5 Y5
G1 F600 X126.607 Y98.69 E11.97213
M204 S625
M205 X10 Y10
G0 F1285.7 X126.607 Y99.284
M204 S500
M205 X5 Y5
G1 F600 X110.714 Y83.391 E12.26809
M204 S625
M205 X10 Y10
G0 F1285.7 X110.12 Y83.391
M204 S500
M205 X5 Y5
G1 F600 X126.607 Y99.878 E12.5751
M204 S625
M205 X10 Y10
G0 F1285.7 X126.607 Y100.472
M204 S500
M205 X5 Y5
G1 F600 X109.526 Y83.391 E12.89317
M204 S625
M205 X10 Y10
G0 F1285.7 X108.932 Y83.391
M204 S500
M205 X5 Y5
G1 F600 X126.607 Y101.066 E13.22231
M204 S625
M205 X10 Y10
G0 F1285.7 X126.607 Y101.66
M204 S500
M205 X5 Y5
G1 F600 X108.338 Y83.391 E13.5625
M204 S625
M205 X10 Y10
G0 F1285.7 X107.744 Y83.391
M204 S500
M205 X5 Y5
G1 F600 X126.607 Y102.254 E13.91376
M204 S625
M205 X10 Y10
G0 F1285.7 X126.607 Y102.848
M204 S500
M205 X5 Y5
G1 F600 X107.15 Y83.391 E14.27608
M204 S625
M205 X10 Y10
G0 F1285.7 X106.556 Y83.391
M204 S500
M205 X5 Y5
G1 F600 X126.607 Y103.442 E14.64946
M204 S625
M205 X10 Y10
G0 F1285.7 X126.607 Y104.036
M204 S500
M205 X5 Y5
G1 F600 X105.962 Y83.391 E15.0339
M204 S625
M205 X10 Y10
G0 F1285.7 X105.368 Y83.391
M204 S500
M205 X5 Y5
G1 F600 X126.607 Y104.63 E15.4294
M204 S625
M205 X10 Y10
G0 F1285.7 X126.607 Y105.224
M204 S500
M205 X5 Y5
G1 F600 X104.774 Y83.391 E15.83597
M204 S625
M205 X10 Y10
G0 F1285.7 X104.18 Y83.391
M204 S500
M205 X5 Y5
G1 F600 X126.607 Y105.818 E16.25359
M204 S625
M205 X10 Y10
G0 F1285.7 X126.607 Y106.412
M204 S500
M205 X5 Y5
G1 F600 X103.586 Y83.391 E16.68228
M204 S625
M205 X10 Y10
G0 F1285.7 X103.391 Y83.79
M204 S500
M205 X5 Y5
G1 F600 X126.208 Y106.607 E17.10716
M204 S625
M205 X10 Y10
G0 F1285.7 X125.614 Y106.607
M204 S500
M205 X5 Y5
G1 F600 X103.391 Y84.384 E17.52099
M204 S625
M205 X10 Y10
G0 F1285.7 X103.391 Y84.978
M204 S500
M205 X5 Y5
G1 F600 X125.02 Y106.607 E17.92375
M204 S625
M205 X10 Y10
G0 F1285.7 X124.426 Y106.607
M204 S500
M205 X5 Y5
G1 F600 X103.391 Y85.572 E18.31546
M204 S625
M205 X10 Y10
G0 F1285.7 X103.391 Y86.166
M204 S500
M205 X5 Y5
G1 F600 X123.832 Y106.607 E18.6961
M204 S625
M205 X10 Y10
G0 F1285.7 X123.238 Y106.607
M204 S500
M205 X5 Y5
G1 F600 X103.391 Y86.76 E19.06568
M204 S625
M205 X10 Y10
G0 F1285.7 X103.391 Y87.354
M204 S500
M205 X5 Y5
G1 F600 X122.644 Y106.607 E19.4242
M204 S625
M205 X10 Y10
G0 F1285.7 X122.05 Y106.607
M204 S500
M205 X5 Y5
G1 F600 X103.391 Y87.948 E19.77166
M204 S625
M205 X10 Y10
G0 F1285.7 X103.391 Y88.542
M204 S500
M205 X5 Y5
G1 F600 X121.456 Y106.607 E20.10805
M204 S625
M205 X10 Y10
G0 F1285.7 X120.862 Y106.607
M204 S500
M205 X5 Y5
G1 F600 X103.391 Y89.136 E20.43339
M204 S625
M205 X10 Y10
G0 F1285.7 X103.391 Y89.73
M204 S500
M205 X5 Y5
G1 F600 X120.268 Y106.607 E20.74767
M204 S625
M205 X10 Y10
G0 F1285.7 X119.674 Y106.607
M204 S500
M205 X5 Y5
G1 F600 X103.391 Y90.324 E21.05088
M204 S625
M205 X10 Y10
G0 F1285.7 X103.391 Y90.918
M204 S500
M205 X5 Y5
G1 F600 X119.081 Y106.607 E21.34304
M204 S625
M205 X10 Y10
G0 F1285.7 X118.487 Y106.607
M204 S500
M205 X5 Y5
G1 F600 X103.391 Y91.512 E21.62414
M204 S625
M205 X10 Y10
G0 F1285.7 X103.391 Y92.106
M204 S500
M205 X5 Y5
G1 F600 X117.893 Y106.607 E21.89418
M204 S625
M205 X10 Y10
G0 F1285.7 X117.299 Y106.607
M204 S500
M205 X5 Y5
G1 F600 X103.391 Y92.7 E22.15316
M204 S625
M205 X10 Y10
G0 F1285.7 X103.391 Y93.294
M204 S500
M205 X5 Y5
G1 F600 X116.705 Y106.607 E22.40108
M204 S625
M205 X10 Y10
G0 F1285.7 X116.111 Y106.607
M204 S500
M205 X5 Y5
G1 F600 X103.391 Y93.888 E22.63793
M204 S625
M205 X10 Y10
G0 F1285.7 X103.391 Y94.482
M204 S500
M205 X5 Y5
G1 F600 X115.517 Y106.607 E22.86373
M204 S625
M205 X10 Y10
G0 F1285.7 X114.923 Y106.607
M204 S500
M205 X5 Y5
G1 F600 X103.391 Y95.076 E23.07846
M204 S625
M205 X10 Y10
G0 F1285.7 X103.391 Y95.67
M204 S500
M205 X5 Y5
G1 F600 X114.329 Y106.607 E23.28214
M204 S625
M205 X10 Y10
G0 F1285.7 X113.735 Y106.607
M204 S500
M205 X5 Y5
G1 F600 X103.391 Y96.264 E23.47475
M204 S625
M205 X10 Y10
G0 F1285.7 X103.391 Y96.858
M204 S500
M205 X5 Y5
G1 F600 X113.141 Y106.607 E23.6563
M204 S625
M205 X10 Y10
G0 F1285.7 X112.547 Y106.607
M204 S500
M205 X5 Y5
G1 F600 X103.391 Y97.452 E23.82679
M204 S625
M205 X10 Y10
G0 F1285.7 X103.391 Y98.046
M204 S500
M205 X5 Y5
G1 F600 X111.953 Y106.607 E23.98621
M204 S625
M205 X10 Y10
G0 F1285.7 X111.359 Y106.607
M204 S500
M205 X5 Y5
G1 F600 X103.391 Y98.639 E24.13459
M204 S625
M205 X10 Y10
G0 F1285.7 X103.391 Y99.233
M204 S500
M205 X5 Y5
G1 F600 X110.765 Y106.607 E24.27191
M204 S625
M205 X10 Y10
G0 F1285.7 X110.171 Y106.607
M204 S500
M205 X5 Y5
G1 F600 X103.391 Y99.827 E24.39816
M204 S625
M205 X10 Y10
G0 F1285.7 X103.391 Y100.421
M204 S500
M205 X5 Y5
G1 F600 X109.577 Y106.607 E24.51335
M204 S625
M205 X10 Y10
G0 F1285.7 X108.983 Y106.607
M204 S500
M205 X5 Y5
G1 F600 X103.391 Y101.015 E24.61748
M204 S625
M205 X10 Y10
G0 F1285.7 X103.391 Y101.609
M204 S500
M205 X5 Y5
G1 F600 X108.389 Y106.607 E24.71055
M204 S625
M205 X10 Y10
G0 F1285.7 X107.795 Y106.607
M204 S500
M205 X5 Y5
G1 F600 X103.391 Y102.203 E24.79256
M204 S625
M205 X10 Y10
G0 F1285.7 X103.391 Y102.797
M204 S500
M205 X5 Y5
G1 F600 X107.201 Y106.607 E24.86351
M204 S625
M205 X10 Y10
G0 F1285.7 X106.607 Y106.607
M204 S500
M205 X5 Y5
G1 F600 X103.391 Y103.391 E24.9234
M204 S625
M205 X10 Y10
G0 F1285.7 X103.391 Y103.985
M204 S500
M205 X5 Y5
G1 F600 X106.013 Y106.607 E24.97222
M204 S625
M205 X10 Y10
G0 F1285.7 X105.419 Y106.607
M204 S500
M205 X5 Y5
G1 F600 X103.391 Y104.579 E25.00999
M204 S625
M205 X10 Y10
G0 F1285.7 X103.391 Y105.173
M204 S500
M205 X5 Y5
G1 F600 X104.825 Y106.607 E25.03669
M204 S625
M205 X10 Y10
G0 F1285.7 X104.231 Y106.607
M204 S500
M205 X5 Y5
G1 F600 X103.391 Y105.767 E25.05233
M204 S625
M205 X10 Y10
G0 F1285.7 X103.391 Y106.361
M204 S500
M205 X5 Y5
G1 F600 X103.637 Y106.607 E25.05691
M204 S625
M205 X10 Y10
;MESH:NONMESH
G0 X103.637 Y106.607 Z0.3
G0 F1285.7 X127.325 Y107.325
;TIME_ELAPSED:209.285327
;LAYER:1
M106 S85
M204 S750
M205 X7.5 Y7.5
;TYPE:WALL-INNER
;MESH:Part1.STL
G1 F1200 X102.675 Y107.325 E25.17283
G1 X102.675 Y82.675 E25.28875
G1 X127.325 Y82.675 E25.40467
G1 X127.325 Y107.325 E25.52059
M204 S2812
M205 X30 Y30
G0 F5142.9 X127.625 Y107.625
M204 S750
M205 X7.5 Y7.5
G1 F1200 X102.375 Y107.625 E25.63934
G1 X102.375 Y82.375 E25.75808
G1 X127.625 Y82.375 E25.87682
G1 X127.625 Y107.625 E25.99556
M204 S2812
M205 X30 Y30
G0 F5142.9 X127.95 Y107.95
M204 S500
M205 X5 Y5
;TYPE:WALL-OUTER
G1 F900 X102.05 Y107.95 E26.13766
G1 X102.05 Y82.05 E26.27976
G1 X127.95 Y82.05 E26.42185
G1 X127.95 Y107.95 E26.56395
M204 S2812
M205 X30 Y30
G0 F5142.9 X127.75 Y107.95
G0 X127.565 Y107.565
G0 X127.01 Y107.01
M204 S500
M205 X5 Y5
;TYPE:SKIN
G1 F1200 X102.99 Y107.01 E26.69574
G1 X102.99 Y82.99 E26.82752
G1 X127.01 Y82.99 E26.9593
G1 X127.01 Y107.01 E27.09109
M204 S2812
M205 X30 Y30
G0 F5142.9 X126.76 Y106.867
M204 S500
M205 X5 Y5
G1 F1200 X126.867 Y106.76 E27.09192
M204 S2812
M205 X30 Y30
G0 F5142.9 X126.867 Y106.265
M204 S500
M205 X5 Y5
G1 F1200 X126.265 Y106.867 E27.09659
M204 S2812
M205 X30 Y30
G0 F5142.9 X125.77 Y106.867
M204 S500
M205 X5 Y5
G1 F1200 X126.867 Y105.77 E27.1051
M204 S2812
M205 X30 Y30
G0 F5142.9 X126.867 Y105.275
M204 S500
M205 X5 Y5
G1 F1200 X125.275 Y106.867 E27.11745
M204 S2812
M205 X30 Y30
G0 F5142.9 X124.78 Y106.867
M204 S500
M205 X5 Y5
G1 F1200 X126.867 Y104.78 E27.13365
M204 S2812
M205 X30 Y30
G0 F5142.9 X126.867 Y104.285
M204 S500
M205 X5 Y5
G1 F1200 X124.285 Y106.867 E27.15368
M204 S2812
M205 X30 Y30
G0 F5142.9 X123.79 Y106.867
M204 S500
M205 X5 Y5
G1 F1200 X126.867 Y103.79 E27.17755
M204 S2812
M205 X30 Y30
G0 F5142.9 X126.867 Y103.295
M204 S500
M205 X5 Y5
G1 F1200 X123.295 Y106.867 E27.20527
M204 S2812
M205 X30 Y30
G0 F5142.9 X122.8 Y106.867
M204 S500
M205 X5 Y5
G1 F1200 X126.867 Y102.8 E27.23682
M204 S2812
M205 X30 Y30
G0 F5142.9 X126.867 Y102.305
M204 S500
M205 X5 Y5
G1 F1200 X122.305 Y106.867 E27.27222
M204 S2812
M205 X30 Y30
G0 F5142.9 X121.81 Y106.867
M204 S500
M205 X5 Y5
G1 F1200 X126.867 Y101.81 E27.31146
M204 S2812
M205 X30 Y30
G0 F5142.9 X126.867 Y101.315
M204 S500
M205 X5 Y5
G1 F1200 X121.315 Y106.867 E27.35454
M204 S2812
M205 X30 Y30
G0 F5142.9 X120.82 Y106.867
